;START_OF_HEADER
;HEADER_VERSION:0.1
;FLAVOR:Griffin
;GENERATOR.NAME:Cura_SteamEngine
;GENERATOR.VERSION:4.5.0
;GENERATOR.BUILD_DATE:2020-02-25
;TARGET_MACHINE.NAME:Ultimaker 3
;EXTRUDER_TRAIN.0.INITIAL_TEMPERATURE:210
;EXTRUDER_TRAIN.0.MATERIAL.VOLUME_USED:3447
;EXTRUDER_TRAIN.0.MATERIAL.GUID:532e8b3d-5fd4-4149-b936-53ada9bd6b85
;EXTRUDER_TRAIN.0.NOZZLE.DIAMETER:0.4
;EXTRUDER_TRAIN.0.NOZZLE.NAME:AA 0.4
;BUILD_PLATE.TYPE:glass
;BUILD_PLATE.INITIAL_TEMPERATURE:60
;PRINT.TIME:1918
;PRINT.GROUPS:1
;PRINT.SIZE.MIN.X:9
;PRINT.SIZE.MIN.Y:6
;PRINT.SIZE.MIN.Z:0.27
;PRINT.SIZE.MAX.X:193.82
;PRINT.SIZE.MAX.Y:149.097
;PRINT.SIZE.MAX.Z:3.87
;END_OF_HEADER
;Generated with Cura_SteamEngine 4.5.0
T0
M82 ;absolute extrusion mode

G92 E0
M109 S210
G0 F15000 X9 Y6 Z2
G280
G1 F1500 E-6.5
;LAYER_COUNT:9
;LAYER:0
M107
M204 S625
M205 X6 Y6
G1 F600 Z2.27
;MESH:Surgical_Mask_Strap_Remix.stl
G0 F4500 X93.322 Y131.981 Z2.27
M204 S500
M205 X5 Y5
;TYPE:WALL-INNER
G1 F600 Z0.27
G1 F1500 E0
G1 F1080 X93.63 Y132.678 E0.01161
G1 X94.174 Y133.206 E0.02316
G1 X94.876 Y133.49 E0.0347
G1 X129.966 Y133.494 E0.56935
G1 X130.465 Y133.48 E0.57696
G1 X131.152 Y133.2 E0.58826
G1 X131.698 Y132.672 E0.59983
G1 X132.008 Y131.953 E0.61176
G1 X132.018 Y131.21 E0.62308
G1 X131.523 Y129.782 E0.64611
G1 X129.079 Y122.937 E0.75685
G1 X128.893 Y122.493 E0.76419
G1 X128.399 Y121.949 E0.77539
G1 X127.734 Y121.628 E0.78664
G1 X127.215 Y121.576 E0.79458
G1 X98.188 Y121.576 E1.23686
G1 X97.612 Y121.62 E1.24566
G1 X96.936 Y121.945 E1.25709
G1 X96.428 Y122.505 E1.26861
G1 X95.877 Y123.991 E1.29275
G1 X93.436 Y130.82 E1.40325
G1 X93.308 Y131.233 E1.40984
G1 X93.322 Y131.981 E1.42124
M204 S625
M205 X6 Y6
G0 F4500 X93.681 Y131.902
M204 S500
M205 X5 Y5
G1 F1080 X93.931 Y132.469 E1.43068
G1 X94.374 Y132.899 E1.44009
G1 X94.946 Y133.13 E1.44949
G1 X129.961 Y133.134 E1.98299
G1 X130.39 Y133.122 E1.98953
G1 X130.952 Y132.893 E1.99878
G1 X131.396 Y132.463 E2.0082
G1 X131.649 Y131.876 E2.01794
G1 X131.657 Y131.268 E2.0272
G1 X131.183 Y129.901 E2.04925
G1 X128.743 Y123.067 E2.15981
G1 X128.585 Y122.689 E2.16605
G1 X128.18 Y122.243 E2.17523
G1 X127.635 Y121.98 E2.18445
G1 X127.197 Y121.936 E2.19116
G1 X98.202 Y121.936 E2.63294
G1 X97.707 Y121.974 E2.64051
G1 X97.155 Y122.239 E2.64984
G1 X96.741 Y122.695 E2.65922
G1 X96.215 Y124.114 E2.68228
G1 X93.778 Y130.934 E2.79263
G1 X93.669 Y131.284 E2.79821
G1 X93.681 Y131.902 E2.80763
M204 S625
M205 X6 Y6
G0 F4500 X94.069 Y131.816
M204 S500
M205 X5 Y5
;TYPE:WALL-OUTER
G1 F1080 X94.257 Y132.242 E2.81591
G1 X94.591 Y132.566 E2.82418
G1 X95.022 Y132.74 E2.83244
G1 X129.955 Y132.744 E3.45341
G1 X130.308 Y132.734 E3.45969
G1 X130.735 Y132.56 E3.46788
G1 X131.069 Y132.237 E3.47614
G1 X131.26 Y131.793 E3.48473
G1 X131.266 Y131.331 E3.49295
G1 X130.815 Y130.03 E3.51742
G1 X128.379 Y123.208 E3.64619
G1 X128.251 Y122.901 E3.6521
G1 X127.942 Y122.561 E3.66027
G1 X127.528 Y122.361 E3.66844
G1 X127.178 Y122.326 E3.6747
G1 X98.217 Y122.326 E4.18951
G1 X97.81 Y122.357 E4.19676
G1 X97.392 Y122.558 E4.20501
G1 X97.08 Y122.901 E4.21325
G1 X96.581 Y124.247 E4.23877
G1 X94.148 Y131.058 E4.36733
G1 X94.06 Y131.34 E4.37258
G1 X94.069 Y131.816 E4.38105
M204 S625
M205 X6 Y6
G0 F4500 X94.149 Y131.999
G0 X93.726 Y132.184
G0 X93.701 Y132.194
G0 X88.3 Y135.357
M204 S500
M205 X5 Y5
;TYPE:WALL-INNER
G1 F1080 X88.241 Y134.24 E4.39809
G1 X88.231 Y134.047 E4.40103
G1 X88.039 Y134.072 E4.4029
G1 X70.933 Y136.319 E4.66578
G1 X70.756 Y136.342 E4.6685
G1 X70.779 Y136.519 E4.67025
G1 X71.186 Y139.585 E4.71738
G1 X72.681 Y139.585 E4.74016
G1 X73.195 Y139.723 E4.74827
G1 X73.617 Y139.966 E4.75569
G1 X74.029 Y140.364 E4.76442
G1 X74.293 Y140.821 E4.77246
G1 X74.432 Y141.337 E4.7806
G1 X74.432 Y141.817 E4.78791
G1 X74.301 Y142.344 E4.79619
G1 X74.024 Y142.841 E4.80486
G1 X73.688 Y143.177 E4.8121
G1 X73.188 Y143.477 E4.82098
G1 X72.727 Y143.6 E4.82825
G1 X72.142 Y143.61 E4.83716
G1 X71.686 Y143.49 E4.84435
G1 X71.212 Y143.226 E4.85262
G1 X70.831 Y142.858 E4.86069
G1 X70.56 Y142.408 E4.86869
G1 X70.387 Y141.798 E4.87835
G1 X69.686 Y136.483 E4.96003
G1 X59.036 Y137.881 E5.1237
G1 X58.859 Y137.904 E5.12642
G1 X58.882 Y138.081 E5.12817
G1 X59.287 Y141.151 E5.17535
G1 X60.74 Y141.151 E5.19749
G1 X61.302 Y141.291 E5.20632
G1 X61.717 Y141.531 E5.21362
G1 X62.103 Y141.904 E5.2218
G1 X62.399 Y142.396 E5.23055
G1 X62.521 Y142.856 E5.2378
G1 X62.531 Y143.394 E5.246
G1 X62.392 Y143.95 E5.25473
G1 X62.133 Y144.401 E5.26266
G1 X61.757 Y144.776 E5.27075
G1 X61.296 Y145.043 E5.27886
G1 X60.828 Y145.167 E5.28624
G1 X60.288 Y145.177 E5.29447
G1 X59.738 Y145.04 E5.30311
G1 X59.282 Y144.777 E5.31113
G1 X58.941 Y144.436 E5.31847
G1 X58.641 Y143.934 E5.32738
G1 X58.489 Y143.367 E5.33633
G1 X57.788 Y138.045 E5.41812
G1 X47.138 Y139.443 E5.58178
G1 X46.961 Y139.466 E5.5845
G1 X46.984 Y139.643 E5.58626
G1 X47.389 Y142.717 E5.6335
G1 X48.883 Y142.717 E5.65626
G1 X49.4 Y142.856 E5.66442
G1 X49.86 Y143.121 E5.67251
G1 X50.203 Y143.464 E5.6799
G1 X50.477 Y143.921 E5.68802
G1 X50.636 Y144.475 E5.6968
G1 X50.636 Y144.95 E5.70404
G1 X50.506 Y145.477 E5.71231
G1 X50.23 Y145.972 E5.72094
G1 X49.859 Y146.343 E5.72894
G1 X49.438 Y146.586 E5.73634
G1 X48.878 Y146.746 E5.74522
G1 X48.36 Y146.746 E5.75311
G1 X47.843 Y146.607 E5.76127
G1 X47.423 Y146.365 E5.76865
G1 X47.008 Y145.964 E5.77744
G1 X46.768 Y145.547 E5.78477
G1 X46.591 Y144.928 E5.79458
G1 X45.89 Y139.607 E5.87636
G1 X35.238 Y141.005 E6.04005
G1 X35.061 Y141.028 E6.04277
G1 X35.084 Y141.205 E6.04453
G1 X35.491 Y144.284 E6.09185
G1 X36.945 Y144.284 E6.114
G1 X37.465 Y144.413 E6.12216
G1 X37.927 Y144.669 E6.13021
G1 X38.31 Y145.039 E6.13833
G1 X38.58 Y145.487 E6.1463
G1 X38.726 Y145.997 E6.15438
G1 X38.736 Y146.57 E6.16311
G1 X38.613 Y147.035 E6.17044
G1 X38.331 Y147.54 E6.17925
G1 X37.994 Y147.878 E6.18652
G1 X37.533 Y148.154 E6.19471
G1 X37.025 Y148.3 E6.20277
G1 X36.497 Y148.309 E6.21081
G1 X35.94 Y148.171 E6.21955
G1 X35.525 Y147.931 E6.22686
G1 X35.109 Y147.53 E6.23566
G1 X34.869 Y147.114 E6.24298
G1 X34.708 Y146.547 E6.25196
G1 X31.965 Y125.777 E6.57117
G1 X31.965 Y125.23 E6.57951
G1 X32.094 Y124.712 E6.58764
G1 X32.375 Y124.206 E6.59646
G1 X32.711 Y123.87 E6.6037
G1 X33.208 Y123.572 E6.61253
G1 X33.669 Y123.449 E6.6198
G1 X34.251 Y123.439 E6.62867
G1 X34.757 Y123.574 E6.63665
G1 X35.179 Y123.817 E6.64407
G1 X35.594 Y124.218 E6.65286
G1 X35.835 Y124.634 E6.66018
G1 X35.982 Y125.149 E6.66834
G1 X35.991 Y125.68 E6.67644
G1 X35.854 Y126.231 E6.68509
G1 X35.591 Y126.687 E6.69311
G1 X35.217 Y127.061 E6.70117
G1 X34.795 Y127.305 E6.70859
G1 X33.312 Y127.729 E6.73209
G1 X33.669 Y130.451 E6.77392
G1 X33.692 Y130.628 E6.77664
G1 X33.869 Y130.605 E6.7784
G1 X44.344 Y129.229 E6.93937
G1 X44.521 Y129.206 E6.94209
G1 X44.498 Y129.029 E6.94385
G1 X43.863 Y124.211 E7.0179
G1 X43.863 Y123.661 E7.02628
G1 X44.002 Y123.102 E7.03505
G1 X44.266 Y122.646 E7.04308
G1 X44.61 Y122.302 E7.05049
G1 X45.106 Y122.005 E7.0593
G1 X45.567 Y121.882 E7.06657
G1 X46.108 Y121.872 E7.07482
G1 X46.659 Y122.009 E7.08347
G1 X47.074 Y122.249 E7.09077
G1 X47.461 Y122.622 E7.09896
G1 X47.755 Y123.113 E7.10768
G1 X47.878 Y123.573 E7.11494
G1 X47.888 Y124.111 E7.12313
G1 X47.751 Y124.666 E7.13184
G1 X47.488 Y125.121 E7.13985
G1 X47.145 Y125.464 E7.14724
G1 X46.644 Y125.765 E7.15615
G1 X45.208 Y126.154 E7.17882
G1 X45.591 Y129.066 E7.22357
G1 X56.242 Y127.667 E7.38725
G1 X56.419 Y127.644 E7.38996
G1 X56.396 Y127.467 E7.39172
G1 X55.76 Y122.642 E7.46587
G1 X55.76 Y122.097 E7.47418
G1 X55.901 Y121.534 E7.48302
G1 X56.14 Y121.121 E7.49029
G1 X56.546 Y120.699 E7.49921
G1 X56.954 Y120.464 E7.50639
G1 X57.474 Y120.316 E7.51463
G1 X58.048 Y120.306 E7.52337
G1 X58.508 Y120.428 E7.53062
G1 X59.018 Y120.712 E7.53952
G1 X59.356 Y121.05 E7.5468
G1 X59.63 Y121.508 E7.55493
G1 X59.789 Y122.061 E7.5637
G1 X59.789 Y122.537 E7.57095
G1 X59.66 Y123.057 E7.57912
G1 X59.379 Y123.563 E7.58793
G1 X59.047 Y123.894 E7.59508
G1 X58.54 Y124.199 E7.60409
G1 X57.105 Y124.588 E7.62675
G1 X57.489 Y127.504 E7.67156
G1 X68.14 Y126.105 E7.83524
G1 X68.317 Y126.082 E7.83796
G1 X68.294 Y125.905 E7.83971
G1 X67.658 Y121.075 E7.91394
G1 X67.658 Y120.487 E7.9229
G1 X67.783 Y120.018 E7.9303
G1 X68.067 Y119.508 E7.93919
G1 X68.406 Y119.169 E7.9465
G1 X68.861 Y118.895 E7.95459
G1 X69.415 Y118.737 E7.96337
G1 X69.893 Y118.737 E7.97065
G1 X70.413 Y118.866 E7.97881
G1 X70.878 Y119.123 E7.98691
G1 X71.287 Y119.519 E7.99558
G1 X71.549 Y119.974 E8.00358
G1 X71.674 Y120.442 E8.01096
G1 X71.684 Y121.024 E8.01983
G1 X71.562 Y121.484 E8.02708
G1 X71.279 Y121.993 E8.03596
G1 X70.94 Y122.332 E8.04326
G1 X70.482 Y122.607 E8.0514
G1 X69.004 Y123.029 E8.07482
G1 X69.387 Y125.942 E8.11959
G1 X90.471 Y123.173 E8.44359
G1 X91.905 Y119.712 E8.50067
G1 X92.227 Y119.29 E8.50876
G1 X92.65 Y118.967 E8.51687
G1 X93.052 Y118.8 E8.5235
G1 X93.739 Y118.688 E8.53411
G1 X131.274 Y118.688 E9.10601
G1 X131.772 Y118.752 E9.11366
G1 X132.281 Y118.944 E9.12195
G1 X132.78 Y119.301 E9.1313
G1 X133.045 Y119.648 E9.13795
G1 X133.229 Y120.037 E9.14451
G1 X134.529 Y123.173 E9.19623
G1 X155.436 Y125.919 E9.51752
G1 X155.613 Y125.942 E9.52024
G1 X155.636 Y125.765 E9.522
G1 X155.997 Y123.016 E9.56424
G1 X154.55 Y122.627 E9.58707
G1 X154.128 Y122.384 E9.59449
G1 X153.713 Y121.983 E9.60328
G1 X153.473 Y121.566 E9.61061
G1 X153.313 Y121.007 E9.61947
G1 X153.313 Y120.487 E9.6274
G1 X153.438 Y120.018 E9.63479
G1 X153.722 Y119.508 E9.64369
G1 X154.06 Y119.17 E9.65097
G1 X154.518 Y118.895 E9.65911
G1 X155.071 Y118.737 E9.66787
G1 X155.549 Y118.737 E9.67516
G1 X156.109 Y118.876 E9.68395
G1 X156.565 Y119.14 E9.69197
G1 X156.909 Y119.484 E9.69939
G1 X157.183 Y119.941 E9.70751
G1 X157.329 Y120.45 E9.71557
G1 X157.34 Y121.083 E9.72522
G1 X156.706 Y125.905 E9.79932
G1 X156.683 Y126.082 E9.80204
G1 X156.86 Y126.105 E9.8038
G1 X167.51 Y127.504 E9.96746
G1 X167.898 Y124.583 E10.01236
G1 X166.489 Y124.206 E10.03458
G1 X165.982 Y123.923 E10.04343
G1 X165.647 Y123.588 E10.05065
G1 X165.37 Y123.126 E10.05886
G1 X165.224 Y122.617 E10.06692
G1 X165.214 Y122.044 E10.07566
G1 X165.336 Y121.584 E10.08291
G1 X165.62 Y121.074 E10.0918
G1 X165.958 Y120.736 E10.09909
G1 X166.415 Y120.462 E10.1072
G1 X166.925 Y120.316 E10.11529
G1 X167.498 Y120.306 E10.12402
G1 X167.96 Y120.429 E10.1313
G1 X168.467 Y120.71 E10.14013
G1 X168.836 Y121.08 E10.1481
G1 X169.081 Y121.502 E10.15553
G1 X169.24 Y122.061 E10.16439
G1 X169.24 Y122.599 E10.17258
G1 X169.175 Y123.141 E10.1809
G1 X168.604 Y127.467 E10.24739
G1 X168.581 Y127.644 E10.25011
G1 X168.758 Y127.667 E10.25186
G1 X179.409 Y129.066 E10.41554
G1 X179.793 Y126.149 E10.46037
G1 X178.344 Y125.759 E10.48323
G1 X177.885 Y125.494 E10.49131
G1 X177.543 Y125.152 E10.49868
G1 X177.245 Y124.655 E10.50751
G1 X177.122 Y124.194 E10.51478
G1 X177.112 Y123.608 E10.52371
G1 X177.245 Y123.107 E10.53161
G1 X177.49 Y122.684 E10.53905
G1 X177.891 Y122.269 E10.54785
G1 X178.344 Y122.008 E10.55581
G1 X178.861 Y121.869 E10.56397
G1 X179.344 Y121.869 E10.57133
G1 X179.905 Y122.009 E10.58014
G1 X180.322 Y122.25 E10.58748
G1 X180.736 Y122.649 E10.59624
G1 X180.978 Y123.067 E10.6036
G1 X181.137 Y123.625 E10.61244
G1 X181.137 Y124.161 E10.6206
G1 X181.072 Y124.706 E10.62897
G1 X180.502 Y129.029 E10.6954
G1 X180.479 Y129.206 E10.69812
G1 X180.656 Y129.229 E10.69988
G1 X191.308 Y130.628 E10.86357
G1 X191.691 Y127.715 E10.90834
G1 X190.288 Y127.339 E10.93047
G1 X189.814 Y127.076 E10.93873
G1 X189.406 Y126.682 E10.94737
G1 X189.166 Y126.266 E10.95469
G1 X189.006 Y125.706 E10.96356
G1 X189.006 Y125.185 E10.9715
G1 X189.131 Y124.717 E10.97888
G1 X189.394 Y124.244 E10.98713
G1 X189.788 Y123.836 E10.99577
G1 X190.205 Y123.596 E11.0031
G1 X190.719 Y123.449 E11.01125
G1 X191.296 Y123.439 E11.02004
G1 X191.755 Y123.56 E11.02727
G1 X192.225 Y123.822 E11.03547
G1 X192.635 Y124.218 E11.04416
G1 X192.876 Y124.634 E11.05148
G1 X193.035 Y125.192 E11.06032
G1 X193.035 Y125.731 E11.06853
G1 X192.858 Y127.123 E11.08991
G1 X190.306 Y146.5 E11.3877
G1 X190.153 Y147.075 E11.39677
G1 X189.911 Y147.494 E11.40414
G1 X189.537 Y147.882 E11.41235
G1 X189.047 Y148.176 E11.42106
G1 X188.585 Y148.299 E11.42834
G1 X188.048 Y148.309 E11.43653
G1 X187.53 Y148.182 E11.44465
G1 X187.033 Y147.905 E11.45332
G1 X186.695 Y147.566 E11.46062
G1 X186.42 Y147.109 E11.46874
G1 X186.261 Y146.554 E11.47754
G1 X186.261 Y146.08 E11.48476
G1 X186.392 Y145.553 E11.49304
G1 X186.669 Y145.056 E11.5017
G1 X187.005 Y144.72 E11.50894
G1 X187.505 Y144.42 E11.51783
G1 X187.966 Y144.297 E11.5251
G1 X189.509 Y144.274 E11.54861
G1 X189.916 Y141.205 E11.59578
G1 X189.939 Y141.028 E11.5985
G1 X189.762 Y141.005 E11.60026
G1 X179.11 Y139.607 E11.76395
G1 X178.409 Y144.933 E11.8458
G1 X178.268 Y145.465 E11.85419
G1 X178.006 Y145.935 E11.86238
G1 X177.638 Y146.316 E11.87046
G1 X177.186 Y146.587 E11.87849
G1 X176.679 Y146.733 E11.88652
G1 X176.107 Y146.743 E11.89524
G1 X175.6 Y146.607 E11.90324
G1 X175.178 Y146.365 E11.91065
G1 X174.763 Y145.964 E11.91944
G1 X174.521 Y145.546 E11.9268
G1 X174.377 Y145.035 E11.93489
G1 X174.367 Y144.456 E11.94372
G1 X174.489 Y143.995 E11.95098
G1 X174.771 Y143.489 E11.95981
G1 X175.109 Y143.151 E11.96709
G1 X175.568 Y142.876 E11.97524
G1 X176.122 Y142.717 E11.98402
G1 X177.612 Y142.717 E12.00673
G1 X178.018 Y139.643 E12.05397
G1 X178.041 Y139.466 E12.05669
G1 X177.864 Y139.443 E12.05845
G1 X167.212 Y138.045 E12.22214
G1 X166.511 Y143.367 E12.30393
G1 X166.356 Y143.947 E12.31308
G1 X166.119 Y144.358 E12.3203
G1 X165.738 Y144.752 E12.32866
G1 X165.291 Y145.021 E12.3366
G1 X164.737 Y145.18 E12.34539
G1 X164.26 Y145.18 E12.35265
G1 X163.697 Y145.039 E12.3615
G1 X163.284 Y144.8 E12.36877
G1 X162.897 Y144.427 E12.37696
G1 X162.601 Y143.935 E12.38571
G1 X162.466 Y143.428 E12.3937
G1 X162.466 Y142.947 E12.40103
G1 X162.596 Y142.423 E12.40925
G1 X162.875 Y141.922 E12.41799
G1 X163.243 Y141.554 E12.42592
G1 X163.664 Y141.312 E12.43332
G1 X164.18 Y141.164 E12.4415
G1 X165.716 Y141.136 E12.46491
G1 X166.119 Y138.081 E12.51186
G1 X166.142 Y137.904 E12.51458
G1 X165.965 Y137.881 E12.51633
G1 X155.314 Y136.483 E12.68001
G1 X154.613 Y141.801 E12.76174
G1 X154.459 Y142.377 E12.77082
G1 X154.195 Y142.835 E12.77888
G1 X153.816 Y143.214 E12.78705
G1 X153.403 Y143.454 E12.79432
G1 X152.841 Y143.613 E12.80322
G1 X152.317 Y143.613 E12.81121
G1 X151.846 Y143.488 E12.81863
G1 X151.34 Y143.206 E12.82746
G1 X151.003 Y142.868 E12.83473
G1 X150.704 Y142.372 E12.84355
G1 X150.568 Y141.862 E12.8516
G1 X150.568 Y141.338 E12.85958
G1 X150.707 Y140.821 E12.86774
G1 X150.949 Y140.401 E12.87512
G1 X151.352 Y139.983 E12.88397
G1 X151.767 Y139.745 E12.89126
G1 X152.325 Y139.585 E12.9001
G1 X153.816 Y139.585 E12.92282
G1 X154.221 Y136.519 E12.96994
G1 X154.244 Y136.342 E12.97266
G1 X154.067 Y136.319 E12.97442
G1 X136.985 Y134.076 E13.23692
G1 X136.799 Y134.052 E13.23978
G1 X136.784 Y134.239 E13.2416
G1 X136.685 Y135.439 E13.25995
G1 X136.607 Y135.66 E13.26352
G1 X136.52 Y135.777 E13.26574
G1 X136.374 Y135.881 E13.26847
G1 X136.09 Y135.988 E13.2731
G1 X135.743 Y136.047 E13.27846
G1 X89.686 Y136.07 E13.98021
G1 X89.138 Y136.034 E13.98858
G1 X88.788 Y135.951 E13.99406
G1 X88.561 Y135.841 E13.9979
G1 X88.44 Y135.731 E14.00039
G1 X88.36 Y135.596 E14.00278
G1 X88.3 Y135.357 E14.00654
M204 S625
M205 X6 Y6
G0 F4500 X87.952 Y135.445
M204 S500
M205 X5 Y5
G1 F1080 X87.942 Y135.406 E14.00715
G1 X87.902 Y134.648 E14.01872
G1 X87.892 Y134.455 E14.02166
G1 X87.7 Y134.48 E14.02353
G1 X71.337 Y136.629 E14.27499
G1 X71.16 Y136.652 E14.27771
G1 X71.183 Y136.829 E14.27946
G1 X71.501 Y139.225 E14.31629
G1 X72.729 Y139.225 E14.335
G1 X73.334 Y139.387 E14.34454
G1 X73.835 Y139.676 E14.35336
G1 X74.317 Y140.142 E14.36357
G1 X74.629 Y140.682 E14.37307
G1 X74.792 Y141.289 E14.38265
G1 X74.792 Y141.86 E14.39135
G1 X74.639 Y142.476 E14.40102
G1 X74.313 Y143.061 E14.41123
G1 X73.911 Y143.464 E14.4199
G1 X73.329 Y143.812 E14.43023
G1 X72.778 Y143.959 E14.43892
G1 X72.099 Y143.971 E14.44927
G1 X71.549 Y143.826 E14.45793
G1 X70.997 Y143.519 E14.46756
G1 X70.546 Y143.084 E14.4771
G1 X70.228 Y142.554 E14.48652
G1 X70.215 Y142.507 E14.48726
G1 X70.042 Y141.897 E14.49693
