;START_OF_HEADER
;HEADER_VERSION:0.1
;FLAVOR:Griffin
;GENERATOR.NAME:Cura_SteamEngine
;GENERATOR.VERSION:4.5.0
;GENERATOR.BUILD_DATE:2020-02-25
;TARGET_MACHINE.NAME:Ultimaker 3
;EXTRUDER_TRAIN.0.INITIAL_TEMPERATURE:210
;EXTRUDER_TRAIN.0.MATERIAL.VOLUME_USED:3903
;EXTRUDER_TRAIN.0.MATERIAL.GUID:532e8b3d-5fd4-4149-b936-53ada9bd6b85
;EXTRUDER_TRAIN.0.NOZZLE.DIAMETER:0.4
;EXTRUDER_TRAIN.0.NOZZLE.NAME:AA 0.4
;BUILD_PLATE.TYPE:glass
;BUILD_PLATE.INITIAL_TEMPERATURE:60
;PRINT.TIME:988
;PRINT.GROUPS:1
;PRINT.SIZE.MIN.X:9
;PRINT.SIZE.MIN.Y:6
;PRINT.SIZE.MIN.Z:0.27
;PRINT.SIZE.MAX.X:126.325
;PRINT.SIZE.MAX.Y:117.325
;PRINT.SIZE.MAX.Z:19.77
;END_OF_HEADER
;Generated with Cura_SteamEngine 4.5.0
T0
M82 ;absolute extrusion mode

G92 E0
M109 S210
G0 F15000 X9 Y6 Z2
G280
G1 F1500 E-6.5
;LAYER_COUNT:66
;LAYER:0
M107
M204 S625
M205 X6 Y6
G1 F600 Z2.27
;MESH:xyzCalibration_cube.stl
G0 F4285.7 X107.46 Y116.54 Z2.27
M204 S500
M205 X5 Y5
;TYPE:WALL-INNER
G1 F600 Z0.27
G1 F1500 E0
G1 F1200 X107.46 Y98.46 E0.27548
G1 X125.54 Y98.46 E0.55095
G1 X125.54 Y116.54 E0.82643
G1 X107.46 Y116.54 E1.10191
M204 S625
M205 X6 Y6
G0 F4285.7 X107.1 Y116.9
M204 S500
M205 X5 Y5
G1 F1200 X107.1 Y98.1 E1.38835
G1 X125.9 Y98.1 E1.6748
G1 X125.9 Y116.9 E1.96125
G1 X107.1 Y116.9 E2.2477
M204 S625
M205 X6 Y6
G0 F4285.7 X106.71 Y117.29
M204 S500
M205 X5 Y5
;TYPE:WALL-OUTER
G1 F1200 X106.71 Y97.71 E2.59575
G1 X126.29 Y97.71 E2.9438
G1 X126.29 Y117.29 E3.29186
G1 X106.71 Y117.29 E3.63991
M204 S625
M205 X6 Y6
G0 F4285.7 X106.71 Y117.09
G0 X107.172 Y116.828
G0 X107.84 Y116.16
M204 S500
M205 X5 Y5
;TYPE:SKIN
G1 F1200 X107.84 Y98.84 E3.94779
G1 X125.16 Y98.84 E4.25567
G1 X125.16 Y116.16 E4.56355
G1 X107.84 Y116.16 E4.87143
M204 S625
M205 X6 Y6
G0 F4285.7 X108.292 Y116.014
M204 S500
M205 X5 Y5
G1 F1200 X107.983 Y115.705 E4.8792
M204 S625
M205 X6 Y6
G0 F4285.7 X107.983 Y115.111
M204 S500
M205 X5 Y5
G1 F1200 X108.886 Y116.014 E4.9019
M204 S625
M205 X6 Y6
G0 F4285.7 X109.48 Y116.014
M204 S500
M205 X5 Y5
G1 F1200 X107.983 Y114.517 E4.93953
M204 S625
M205 X6 Y6
G0 F4285.7 X107.983 Y113.923
M204 S500
M205 X5 Y5
G1 F1200 X110.074 Y116.014 E4.9921
M204 S625
M205 X6 Y6
G0 F4285.7 X110.668 Y116.014
M204 S500
M205 X5 Y5
G1 F1200 X107.983 Y113.329 E5.0596
M204 S625
M205 X6 Y6
G0 F4285.7 X107.983 Y112.735
M204 S500
M205 X5 Y5
G1 F1200 X111.262 Y116.014 E5.14203
M204 S625
M205 X6 Y6
G0 F4285.7 X111.856 Y116.014
M204 S500
M205 X5 Y5
G1 F1200 X107.983 Y112.141 E5.23939
M204 S625
M205 X6 Y6
G0 F4285.7 X107.983 Y111.547
M204 S500
M205 X5 Y5
G1 F1200 X112.45 Y116.014 E5.35169
M204 S625
M205 X6 Y6
G0 F4285.7 X113.044 Y116.014
M204 S500
M205 X5 Y5
G1 F1200 X107.983 Y110.953 E5.47891
M204 S625
M205 X6 Y6
G0 F4285.7 X107.983 Y110.359
M204 S500
M205 X5 Y5
G1 F1200 X113.638 Y116.014 E5.62108
M204 S625
M205 X6 Y6
G0 F4285.7 X114.232 Y116.014
M204 S500
M205 X5 Y5
G1 F1200 X107.983 Y109.765 E5.77817
M204 S625
M205 X6 Y6
G0 F4285.7 X107.983 Y109.171
M204 S500
M205 X5 Y5
G1 F1200 X114.826 Y116.014 E5.9502
M204 S625
M205 X6 Y6
G0 F4285.7 X115.42 Y116.014
M204 S500
M205 X5 Y5
G1 F1200 X107.983 Y108.577 E6.13715
M204 S625
M205 X6 Y6
G0 F4285.7 X107.983 Y107.983
M204 S500
M205 X5 Y5
G1 F1200 X116.014 Y116.014 E6.33905
M204 S625
M205 X6 Y6
G0 F4285.7 X116.608 Y116.014
M204 S500
M205 X5 Y5
G1 F1200 X107.983 Y107.389 E6.55587
M204 S625
M205 X6 Y6
G0 F4285.7 X107.983 Y106.795
M204 S500
M205 X5 Y5
G1 F1200 X117.202 Y116.014 E6.78763
M204 S625
M205 X6 Y6
G0 F4285.7 X117.796 Y116.014
M204 S500
M205 X5 Y5
G1 F1200 X107.983 Y106.201 E7.03432
M204 S625
M205 X6 Y6
G0 F4285.7 X107.983 Y105.607
M204 S500
M205 X5 Y5
G1 F1200 X118.39 Y116.014 E7.29594
M204 S625
M205 X6 Y6
G0 F4285.7 X118.984 Y116.014
M204 S500
M205 X5 Y5
G1 F1200 X107.983 Y105.013 E7.57249
M204 S625
M205 X6 Y6
G0 F4285.7 X107.983 Y104.419
M204 S500
M205 X5 Y5
G1 F1200 X119.578 Y116.014 E7.86398
M204 S625
M205 X6 Y6
G0 F4285.7 X120.172 Y116.014
M204 S500
M205 X5 Y5
G1 F1200 X107.983 Y103.825 E8.1704
M204 S625
M205 X6 Y6
G0 F4285.7 X107.983 Y103.231
M204 S500
M205 X5 Y5
G1 F1200 X120.766 Y116.014 E8.49175
M204 S625
M205 X6 Y6
G0 F4285.7 X121.36 Y116.014
M204 S500
M205 X5 Y5
G1 F1200 X107.983 Y102.637 E8.82804
M204 S625
M205 X6 Y6
G0 F4285.7 X107.983 Y102.043
M204 S500
M205 X5 Y5
G1 F1200 X121.953 Y116.014 E9.17924
M204 S625
M205 X6 Y6
G0 F4285.7 X122.547 Y116.014
M204 S500
M205 X5 Y5
G1 F1200 X107.983 Y101.45 E9.54537
M204 S625
M205 X6 Y6
G0 F4285.7 X107.983 Y100.856
M204 S500
M205 X5 Y5
G1 F1200 X123.141 Y116.014 E9.92642
M204 S625
M205 X6 Y6
G0 F4285.7 X123.735 Y116.014
M204 S500
M205 X5 Y5
G1 F1200 X107.983 Y100.262 E10.32241
M204 S625
M205 X6 Y6
G0 F4285.7 X107.983 Y99.668
M204 S500
M205 X5 Y5
G1 F1200 X124.329 Y116.014 E10.73334
M204 S625
M205 X6 Y6
G0 F4285.7 X124.923 Y116.014
M204 S500
M205 X5 Y5
G1 F1200 X107.983 Y99.074 E11.15919
M204 S625
M205 X6 Y6
G0 F4285.7 X108.488 Y98.985
M204 S500
M205 X5 Y5
G1 F1200 X125.013 Y115.51 E11.57461
M204 S625
M205 X6 Y6
G0 F4285.7 X125.013 Y114.916
M204 S500
M205 X5 Y5
G1 F1200 X109.082 Y98.985 E11.9751
M204 S625
M205 X6 Y6
G0 F4285.7 X109.676 Y98.985
M204 S500
M205 X5 Y5
G1 F1200 X125.013 Y114.322 E12.36066
M204 S625
M205 X6 Y6
G0 F4285.7 X125.013 Y113.728
M204 S500
M205 X5 Y5
G1 F1200 X110.27 Y98.985 E12.73128
M204 S625
M205 X6 Y6
G0 F4285.7 X110.864 Y98.985
M204 S500
M205 X5 Y5
G1 F1200 X125.013 Y113.134 E13.08698
M204 S625
M205 X6 Y6
G0 F4285.7 X125.013 Y112.54
M204 S500
M205 X5 Y5
G1 F1200 X111.458 Y98.985 E13.42774
M204 S625
M205 X6 Y6
G0 F4285.7 X112.052 Y98.985
M204 S500
M205 X5 Y5
G1 F1200 X125.013 Y111.946 E13.75356
M204 S625
M205 X6 Y6
G0 F4285.7 X125.013 Y111.352
M204 S500
M205 X5 Y5
G1 F1200 X112.646 Y98.985 E14.06446
M204 S625
M205 X6 Y6
G0 F4285.7 X113.24 Y98.985
M204 S500
M205 X5 Y5
G1 F1200 X125.013 Y110.758 E14.36042
M204 S625
M205 X6 Y6
G0 F4285.7 X125.013 Y110.164
M204 S500
M205 X5 Y5
G1 F1200 X113.834 Y98.985 E14.64145
M204 S625
M205 X6 Y6
G0 F4285.7 X114.428 Y98.985
M204 S500
M205 X5 Y5
G1 F1200 X125.013 Y109.57 E14.90755
M204 S625
M205 X6 Y6
G0 F4285.7 X125.013 Y108.976
M204 S500
M205 X5 Y5
G1 F1200 X115.022 Y98.985 E15.15871
M204 S625
M205 X6 Y6
G0 F4285.7 X115.616 Y98.985
M204 S500
M205 X5 Y5
G1 F1200 X125.013 Y108.382 E15.39494
M204 S625
M205 X6 Y6
G0 F4285.7 X125.013 Y107.788
M204 S500
M205 X5 Y5
G1 F1200 X116.21 Y98.985 E15.61624
M204 S625
M205 X6 Y6
G0 F4285.7 X116.804 Y98.985
M204 S500
M205 X5 Y5
G1 F1200 X125.013 Y107.194 E15.82261
M204 S625
M205 X6 Y6
G0 F4285.7 X125.013 Y106.6
M204 S500
M205 X5 Y5
G1 F1200 X117.398 Y98.985 E16.01404
M204 S625
M205 X6 Y6
G0 F4285.7 X117.992 Y98.985
M204 S500
M205 X5 Y5
G1 F1200 X125.013 Y106.006 E16.19054
M204 S625
M205 X6 Y6
G0 F4285.7 X125.013 Y105.412
M204 S500
M205 X5 Y5
G1 F1200 X118.586 Y98.985 E16.35211
M204 S625
M205 X6 Y6
G0 F4285.7 X119.18 Y98.985
M204 S500
M205 X5 Y5
G1 F1200 X125.013 Y104.818 E16.49874
M204 S625
M205 X6 Y6
G0 F4285.7 X125.013 Y104.224
M104 S205
M204 S500
M205 X5 Y5
G1 F1200 X119.773 Y98.985 E16.63046
M204 S625
M205 X6 Y6
G0 F4285.7 X120.367 Y98.985
M204 S500
M205 X5 Y5
G1 F1200 X125.013 Y103.63 E16.74724
M204 S625
M205 X6 Y6
G0 F4285.7 X125.013 Y103.036
M204 S500
M205 X5 Y5
G1 F1200 X120.961 Y98.985 E16.8491
M204 S625
M205 X6 Y6
G0 F4285.7 X121.555 Y98.985
M204 S500
M205 X5 Y5
G1 F1200 X125.013 Y102.442 E16.93601
M204 S625
M205 X6 Y6
G0 F4285.7 X125.013 Y101.848
M204 S500
M205 X5 Y5
G1 F1200 X122.149 Y98.985 E17.008
M204 S625
M205 X6 Y6
G0 F4285.7 X122.743 Y98.985
M204 S500
M205 X5 Y5
G1 F1200 X125.013 Y101.254 E17.06505
M204 S625
M205 X6 Y6
G0 F4285.7 X125.013 Y100.66
M204 S500
M205 X5 Y5
G1 F1200 X123.337 Y98.985 E17.10717
M204 S625
M205 X6 Y6
G0 F4285.7 X123.931 Y98.985
M204 S500
M205 X5 Y5
G1 F1200 X125.013 Y100.066 E17.13436
M204 S625
M205 X6 Y6
G0 F4285.7 X125.013 Y99.472
M204 S500
M205 X5 Y5
G1 F1200 X124.525 Y98.985 E17.14662
M204 S625
M205 X6 Y6
;MESH:NONMESH
G0 F600 X124.525 Y98.985 Z0.57
G0 F4285.7 X107.3 Y116.7
;TIME_ELAPSED:58.185512
;LAYER:1
M140 S60
M106 S85
M204 S750
M205 X7.5 Y7.5
;TYPE:WALL-INNER
;MESH:xyzCalibration_cube.stl
G1 F2250 X107.3 Y98.3 E17.4062
G1 X125.7 Y98.3 E17.66579
G1 X125.7 Y116.7 E17.92537
G1 X107.3 Y116.7 E18.18496
M204 S2812
M205 X18 Y18
G0 F9642.9 X107 Y117
M204 S750
M205 X7.5 Y7.5
G1 F2250 X107 Y98 E18.45301
G1 X126 Y98 E18.72106
G1 X126 Y117 E18.98911
G1 X107 Y117 E19.25716
M204 S2812
M205 X18 Y18
G0 F9642.9 X106.675 Y117.325
M204 S500
M205 X5 Y5
;TYPE:WALL-OUTER
G1 F2100 X106.675 Y97.675 E19.58058
G1 X126.325 Y97.675 E19.90401
G1 X126.325 Y117.325 E20.22743
G1 X106.675 Y117.325 E20.55086
M204 S2812
M205 X18 Y18
G0 F9642.9 X106.675 Y117.125
G0 X107.06 Y116.94
G0 X107.615 Y116.385
M204 S500
M205 X5 Y5
;TYPE:SKIN
G1 F1800 X107.615 Y98.615 E20.84334
G1 X125.385 Y98.615 E21.13582
G1 X125.385 Y116.385 E21.4283
G1 X107.615 Y116.385 E21.72078
M204 S2812
M205 X18 Y18
G0 F9642.9 X107.724 Y99.174
M204 S500
M205 X5 Y5
G1 F1800 X108.174 Y98.724 E21.73125
M204 S2812
M205 X18 Y18
G0 F9642.9 X108.669 Y98.724
M204 S500
M205 X5 Y5
G1 F1800 X107.724 Y99.669 E21.75325
M204 S2812
M205 X18 Y18
G0 F9642.9 X107.724 Y100.164
M204 S500
M205 X5 Y5
G1 F1800 X109.164 Y98.724 E21.78677
M204 S2812
M205 X18 Y18
G0 F9642.9 X109.659 Y98.724
M204 S500
M205 X5 Y5
G1 F1800 X107.724 Y100.659 E21.83181
M204 S2812
M205 X18 Y18
G0 F9642.9 X107.724 Y101.154
M204 S500
M205 X5 Y5
G1 F1800 X110.154 Y98.724 E21.88837
M204 S2812
M205 X18 Y18
G0 F9642.9 X110.649 Y98.724
M204 S500
M205 X5 Y5
G1 F1800 X107.724 Y101.649 E21.95646
M204 S2812
M205 X18 Y18
G0 F9642.9 X107.724 Y102.144
M204 S500
M205 X5 Y5
G1 F1800 X111.144 Y98.724 E22.03606
M204 S2812
M205 X18 Y18
G0 F9642.9 X111.639 Y98.724
M204 S500
M205 X5 Y5
G1 F1800 X107.724 Y102.639 E22.12719
M204 S2812
M205 X18 Y18
G0 F9642.9 X107.724 Y103.134
M204 S500
M205 X5 Y5
G1 F1800 X112.134 Y98.724 E22.22984
M204 S2812
M205 X18 Y18
G0 F9642.9 X112.629 Y98.724
M204 S500
M205 X5 Y5
G1 F1800 X107.724 Y103.629 E22.34402
M204 S2812
M205 X18 Y18
G0 F9642.9 X107.724 Y104.124
M204 S500
M205 X5 Y5
G1 F1800 X113.124 Y98.724 E22.46971
M204 S2812
M205 X18 Y18
G0 F9642.9 X113.619 Y98.724
M204 S500
M205 X5 Y5
G1 F1800 X107.724 Y104.619 E22.60693
M204 S2812
M205 X18 Y18
G0 F9642.9 X107.724 Y105.114
M204 S500
M205 X5 Y5
G1 F1800 X114.114 Y98.724 E22.75567
M204 S2812
M205 X18 Y18
G0 F9642.9 X114.609 Y98.724
M204 S500
M205 X5 Y5
G1 F1800 X107.724 Y105.609 E22.91593
M204 S2812
M205 X18 Y18
G0 F9642.9 X107.724 Y106.104
M204 S500
M205 X5 Y5
G1 F1800 X115.104 Y98.724 E23.08771
M204 S2812
M205 X18 Y18
G0 F9642.9 X115.599 Y98.724
M204 S500
M205 X5 Y5
G1 F1800 X107.724 Y106.599 E23.27102
M204 S2812
M205 X18 Y18
G0 F9642.9 X107.724 Y107.094
M204 S500
M205 X5 Y5
G1 F1800 X116.094 Y98.724 E23.46585
M204 S2812
M205 X18 Y18
G0 F9642.9 X116.589 Y98.724
M204 S500
M205 X5 Y5
G1 F1800 X107.724 Y107.589 E23.6722
M204 S2812
M205 X18 Y18
G0 F9642.9 X107.724 Y108.084
M204 S500
M205 X5 Y5
G1 F1800 X117.084 Y98.724 E23.89007
M204 S2812
M205 X18 Y18
G0 F9642.9 X117.579 Y98.724
M204 S500
M205 X5 Y5
G1 F1800 X107.724 Y108.579 E24.11946
M204 S2812
M205 X18 Y18
G0 F9642.9 X107.724 Y109.074
M204 S500
M205 X5 Y5
G1 F1800 X118.074 Y98.724 E24.36038
M204 S2812
M205 X18 Y18
G0 F9642.9 X118.569 Y98.724
M204 S500
M205 X5 Y5
G1 F1800 X107.724 Y109.569 E24.61281
M204 S2812
M205 X18 Y18
G0 F9642.9 X107.724 Y110.063
M204 S500
M205 X5 Y5
G1 F1800 X119.064 Y98.724 E24.87676
M204 S2812
M205 X18 Y18
G0 F9642.9 X119.559 Y98.724
M204 S500
M205 X5 Y5
G1 F1800 X107.724 Y110.558 E25.15223
M204 S2812
M205 X18 Y18
G0 F9642.9 X107.724 Y111.053
M204 S500
M205 X5 Y5
G1 F1800 X120.054 Y98.724 E25.43922
M204 S2812
M205 X18 Y18
G0 F9642.9 X120.548 Y98.724
M204 S500
M205 X5 Y5
G1 F1800 X107.724 Y111.548 E25.73773
M204 S2812
M205 X18 Y18
G0 F9642.9 X107.724 Y112.043
M204 S500
M205 X5 Y5
G1 F1800 X121.043 Y98.724 E26.04775
M204 S2812
M205 X18 Y18
G0 F9642.9 X121.538 Y98.724
M204 S500
M205 X5 Y5
G1 F1800 X107.724 Y112.538 E26.3693
M204 S2812
M205 X18 Y18
G0 F9642.9 X107.724 Y113.033
M204 S500
M205 X5 Y5
G1 F1800 X122.033 Y98.724 E26.70237
M204 S2812
M205 X18 Y18
G0 F9642.9 X122.528 Y98.724
M204 S500
M205 X5 Y5
G1 F1800 X107.724 Y113.528 E27.04696
M204 S2812
M205 X18 Y18
G0 F9642.9 X107.724 Y114.023
M204 S500
M205 X5 Y5
G1 F1800 X123.023 Y98.724 E27.40307
M204 S2812
M205 X18 Y18
G0 F9642.9 X123.518 Y98.724
M204 S500
M205 X5 Y5
G1 F1800 X107.724 Y114.518 E27.77071
M204 S2812
M205 X18 Y18
G0 F9642.9 X107.724 Y115.013
M204 S500
M205 X5 Y5
G1 F1800 X124.013 Y98.724 E28.14986
M204 S2812
M205 X18 Y18
G0 F9642.9 X124.508 Y98.724
M204 S500
M205 X5 Y5
G1 F1800 X107.724 Y115.508 E28.54054
M204 S2812
M205 X18 Y18
G0 F9642.9 X107.724 Y116.003
M204 S500
M205 X5 Y5
G1 F1800 X125.003 Y98.724 E28.94274
M204 S2812
M205 X18 Y18
G0 F9642.9 X125.273 Y98.949
M204 S500
M205 X5 Y5
G1 F1800 X107.949 Y116.274 E29.346
M204 S2812
M205 X18 Y18
G0 F9642.9 X108.444 Y116.274
M204 S500
M205 X5 Y5
G1 F1800 X125.273 Y99.444 E29.73774
M204 S2812
M205 X18 Y18
G0 F9642.9 X125.273 Y99.939
M204 S500
M205 X5 Y5
G1 F1800 X108.938 Y116.274 E30.11797
M204 S2812
M205 X18 Y18
G0 F9642.9 X109.433 Y116.274
M204 S500
M205 X5 Y5
G1 F1800 X125.273 Y100.434 E30.48668
M204 S2812
M205 X18 Y18
G0 F9642.9 X125.273 Y100.929
M204 S500
M205 X5 Y5
G1 F1800 X109.928 Y116.274 E30.84386
M204 S2812
M205 X18 Y18
G0 F9642.9 X110.423 Y116.274
M204 S500
M205 X5 Y5
G1 F1800 X125.273 Y101.424 E31.18952
M204 S2812
M205 X18 Y18
G0 F9642.9 X125.273 Y101.919
M204 S500
M205 X5 Y5
G1 F1800 X110.918 Y116.274 E31.52366
M204 S2812
M205 X18 Y18
G0 F9642.9 X111.413 Y116.274
M204 S500
M205 X5 Y5
G1 F1800 X125.273 Y102.414 E31.84628
M204 S2812
M205 X18 Y18
G0 F9642.9 X125.273 Y102.909
M204 S500
M205 X5 Y5
G1 F1800 X111.908 Y116.274 E32.15737
M204 S2812
M205 X18 Y18
G0 F9642.9 X112.403 Y116.274
M204 S500
M205 X5 Y5
G1 F1800 X125.273 Y103.404 E32.45695
M204 S2812
M205 X18 Y18
G0 F9642.9 X125.273 Y103.899
M204 S500
M205 X5 Y5
G1 F1800 X112.898 Y116.274 E32.745
M204 S2812
M205 X18 Y18
G0 F9642.9 X113.393 Y116.274
M204 S500
M205 X5 Y5
G1 F1800 X125.273 Y104.394 E33.02153
M204 S2812
M205 X18 Y18
G0 F9642.9 X125.273 Y104.889
M204 S500
M205 X5 Y5
G1 F1800 X113.888 Y116.274 E33.28653
M204 S2812
M205 X18 Y18
G0 F9642.9 X114.383 Y116.274
M204 S500
M205 X5 Y5
G1 F1800 X125.273 Y105.384 E33.54002
M204 S2812
M205 X18 Y18
G0 F9642.9 X125.273 Y105.879
M204 S500
M205 X5 Y5
G1 F1800 X114.878 Y116.274 E33.78198
M204 S2812
M205 X18 Y18
G0 F9642.9 X115.373 Y116.274
M204 S500
M205 X5 Y5
G1 F1800 X125.273 Y106.374 E34.01242
M204 S2812
M205 X18 Y18
G0 F9642.9 X125.273 Y106.869
M204 S500
M205 X5 Y5
G1 F1800 X115.868 Y116.274 E34.23134
M204 S2812
M205 X18 Y18
G0 F9642.9 X116.363 Y116.274
M204 S500
M205 X5 Y5
G1 F1800 X125.273 Y107.364 E34.43874
M204 S2812
M205 X18 Y18
G0 F9642.9 X125.273 Y107.859
M204 S500
M205 X5 Y5
G1 F1800 X116.857 Y116.275 E34.63464
M204 S2812
M205 X18 Y18
G0 F9642.9 X117.352 Y116.275
M204 S500
M205 X5 Y5
G1 F1800 X125.273 Y108.354 E34.81901
M204 S2812
M205 X18 Y18
G0 F9642.9 X125.273 Y108.849
M204 S500
M205 X5 Y5
G1 F1800 X117.847 Y116.275 E34.99187
M204 S2812
M205 X18 Y18
G0 F9642.9 X118.342 Y116.275
M204 S500
M205 X5 Y5
G1 F1800 X125.273 Y109.344 E35.1532
M204 S2812
M205 X18 Y18
G0 F9642.9 X125.273 Y109.839
M204 S500
M205 X5 Y5
G1 F1800 X118.837 Y116.275 E35.30301
M204 S2812
M205 X18 Y18
G0 F9642.9 X119.332 Y116.275
M204 S500
M205 X5 Y5
G1 F1800 X125.273 Y110.334 E35.4413
M204 S2812
M205 X18 Y18
G0 F9642.9 X125.273 Y110.829
M204 S500
M205 X5 Y5
G1 F1800 X119.827 Y116.275 E35.56806
M204 S2812
M205 X18 Y18
G0 F9642.9 X120.322 Y116.275
M204 S500
M205 X5 Y5
G1 F1800 X125.273 Y111.324 E35.68331
M204 S2812
M205 X18 Y18
G0 F9642.9 X125.273 Y111.819
M204 S500
M205 X5 Y5
G1 F1800 X120.817 Y116.275 E35.78703
M204 S2812
M205 X18 Y18
G0 F9642.9 X121.312 Y116.275
M204 S500
M205 X5 Y5
G1 F1800 X125.273 Y112.314 E35.87923
M204 S2812
M205 X18 Y18
G0 F9642.9 X125.273 Y112.808
M204 S500
M205 X5 Y5
G1 F1800 X121.807 Y116.275 E35.95992
M204 S2812
M205 X18 Y18
G0 F9642.9 X122.302 Y116.275
M204 S500
M205 X5 Y5
G1 F1800 X125.273 Y113.303 E36.02909
M204 S2812
M205 X18 Y18
G0 F9642.9 X125.273 Y113.798
M204 S500
M205 X5 Y5
