;START_OF_HEADER
;HEADER_VERSION:0.1
;FLAVOR:Griffin
;GENERATOR.NAME:Cura_SteamEngine
;GENERATOR.VERSION:4.5.0
;GENERATOR.BUILD_DATE:2020-02-25
;TARGET_MACHINE.NAME:Ultimaker 3
;EXTRUDER_TRAIN.0.INITIAL_TEMPERATURE:210
;EXTRUDER_TRAIN.0.MATERIAL.VOLUME_USED:1826
;EXTRUDER_TRAIN.0.MATERIAL.GUID:532e8b3d-5fd4-4149-b936-53ada9bd6b85
;EXTRUDER_TRAIN.0.NOZZLE.DIAMETER:0.4
;EXTRUDER_TRAIN.0.NOZZLE.NAME:AA 0.4
;BUILD_PLATE.TYPE:glass
;BUILD_PLATE.INITIAL_TEMPERATURE:60
;PRINT.TIME:662
;PRINT.GROUPS:1
;PRINT.SIZE.MIN.X:9
;PRINT.SIZE.MIN.Y:6
;PRINT.SIZE.MIN.Z:0.27
;PRINT.SIZE.MAX.X:126.286
;PRINT.SIZE.MAX.Y:114.796
;PRINT.SIZE.MAX.Z:29.97
;END_OF_HEADER
;Generated with Cura_SteamEngine 4.5.0
T0
M82 ;absolute extrusion mode

G92 E0
M109 S210
G0 F15000 X9 Y6 Z2
G280
G1 F1500 E-6.5
;LAYER_COUNT:100
;LAYER:0
M107
M204 S625
M205 X6 Y6
G1 F600 Z2.27
;MESH:hourglass2.STL
G0 F4500 X107.491 Y114.017 Z2.27
M204 S500
M205 X5 Y5
;TYPE:WALL-INNER
G1 F600 Z0.27
G1 F1500 E0
G1 F1080 X107.491 Y100.983 E0.19859
G1 X125.509 Y100.983 E0.47313
G1 X125.509 Y114.017 E0.67172
G1 X107.491 Y114.017 E0.94625
M204 S625
M205 X6 Y6
G0 F4500 X107.131 Y114.377
M204 S500
M205 X5 Y5
G1 F1080 X107.131 Y100.623 E1.15581
G1 X125.869 Y100.623 E1.44132
G1 X125.869 Y114.377 E1.65088
G1 X107.131 Y114.377 E1.93638
M204 S625
M205 X6 Y6
G0 F4500 X106.741 Y114.767
M204 S500
M205 X5 Y5
;TYPE:WALL-OUTER
G1 F1080 X106.741 Y100.233 E2.19474
G1 X126.259 Y100.233 E2.54169
G1 X126.259 Y114.767 E2.80005
G1 X106.741 Y114.767 E3.147
M204 S625
M205 X6 Y6
G0 F4500 X106.741 Y114.567
G0 X107.203 Y114.305
G0 X107.871 Y113.637
M204 S500
M205 X5 Y5
;TYPE:SKIN
G1 F1080 X107.871 Y101.363 E3.36518
G1 X125.129 Y101.363 E3.67196
G1 X125.129 Y113.637 E3.89014
G1 X107.871 Y113.637 E4.19692
M204 S625
M205 X6 Y6
G0 F4500 X108.145 Y113.491
M204 S500
M205 X5 Y5
G1 F1080 X108.014 Y113.36 E4.20021
M204 S625
M205 X6 Y6
G0 F4500 X108.014 Y112.766
M204 S500
M205 X5 Y5
G1 F1080 X108.739 Y113.491 E4.21844
M204 S625
M205 X6 Y6
G0 F4500 X109.333 Y113.491
M204 S500
M205 X5 Y5
G1 F1080 X108.014 Y112.172 E4.2516
M204 S625
M205 X6 Y6
G0 F4500 X108.014 Y111.578
M204 S500
M205 X5 Y5
G1 F1080 X109.927 Y113.491 E4.29969
M204 S625
M205 X6 Y6
G0 F4500 X110.521 Y113.491
M204 S500
M205 X5 Y5
G1 F1080 X108.014 Y110.984 E4.36271
M204 S625
M205 X6 Y6
G0 F4500 X108.014 Y110.39
M204 S500
M205 X5 Y5
G1 F1080 X111.115 Y113.491 E4.44067
M204 S625
M205 X6 Y6
G0 F4500 X111.709 Y113.491
M204 S500
M205 X5 Y5
G1 F1080 X108.014 Y109.796 E4.53355
M204 S625
M205 X6 Y6
G0 F4500 X108.014 Y109.202
M204 S500
M205 X5 Y5
G1 F1080 X112.303 Y113.491 E4.64138
M204 S625
M205 X6 Y6
G0 F4500 X112.897 Y113.491
M204 S500
M205 X5 Y5
G1 F1080 X108.014 Y108.608 E4.76413
M204 S625
M205 X6 Y6
G0 F4500 X108.014 Y108.014
M204 S500
M205 X5 Y5
G1 F1080 X113.491 Y113.491 E4.90182
M204 S625
M205 X6 Y6
G0 F4500 X114.085 Y113.491
M204 S500
M205 X5 Y5
G1 F1080 X108.014 Y107.42 E5.05444
M204 S625
M205 X6 Y6
G0 F4500 X108.014 Y106.826
M204 S500
M205 X5 Y5
G1 F1080 X114.679 Y113.491 E5.22199
M204 S625
M205 X6 Y6
G0 F4500 X115.273 Y113.491
M204 S500
M205 X5 Y5
G1 F1080 X108.014 Y106.232 E5.40447
M204 S625
M205 X6 Y6
G0 F4500 X108.014 Y105.638
M204 S500
M205 X5 Y5
G1 F1080 X115.867 Y113.491 E5.60189
M204 S625
M205 X6 Y6
G0 F4500 X116.461 Y113.491
M204 S500
M205 X5 Y5
G1 F1080 X108.014 Y105.044 E5.81424
M204 S625
M205 X6 Y6
G0 F4500 X108.014 Y104.45
M204 S500
M205 X5 Y5
G1 F1080 X117.055 Y113.491 E6.04152
M204 S625
M205 X6 Y6
G0 F4500 X117.649 Y113.491
M204 S500
M205 X5 Y5
G1 F1080 X108.014 Y103.857 E6.28372
M204 S625
M205 X6 Y6
G0 F4500 X108.014 Y103.263
M204 S500
M205 X5 Y5
G1 F1080 X118.243 Y113.491 E6.54086
M204 S625
M205 X6 Y6
G0 F4500 X118.837 Y113.491
M204 S500
M205 X5 Y5
G1 F1080 X108.014 Y102.669 E6.81292
M204 S625
M205 X6 Y6
G0 F4500 X108.014 Y102.075
M204 S500
M205 X5 Y5
G1 F1080 X119.431 Y113.491 E7.09992
M204 S625
M205 X6 Y6
G0 F4500 X120.025 Y113.491
M204 S500
M205 X5 Y5
G1 F1080 X108.041 Y101.508 E7.40118
M204 S625
M205 X6 Y6
G0 F4500 X108.635 Y101.508
M204 S500
M205 X5 Y5
G1 F1080 X120.618 Y113.491 E7.70242
M204 S625
M205 X6 Y6
G0 F4500 X121.212 Y113.491
M204 S500
M205 X5 Y5
G1 F1080 X109.229 Y101.508 E8.00366
M204 S625
M205 X6 Y6
G0 F4500 X109.823 Y101.508
M204 S500
M205 X5 Y5
G1 F1080 X121.806 Y113.491 E8.3049
M204 S625
M205 X6 Y6
G0 F4500 X122.4 Y113.491
M204 S500
M205 X5 Y5
G1 F1080 X110.417 Y101.508 E8.60614
M204 S625
M205 X6 Y6
G0 F4500 X111.011 Y101.508
M204 S500
M205 X5 Y5
G1 F1080 X122.994 Y113.491 E8.90738
M204 S625
M205 X6 Y6
G0 F4500 X123.588 Y113.491
M204 S500
M205 X5 Y5
G1 F1080 X111.605 Y101.508 E9.20862
M204 S625
M205 X6 Y6
G0 F4500 X112.199 Y101.508
M204 S500
M205 X5 Y5
G1 F1080 X124.182 Y113.491 E9.50986
M204 S625
M205 X6 Y6
G0 F4500 X124.776 Y113.491
M204 S500
M205 X5 Y5
G1 F1080 X112.793 Y101.508 E9.8111
M204 S625
M205 X6 Y6
G0 F4500 X113.387 Y101.508
M204 S500
M205 X5 Y5
G1 F1080 X124.983 Y113.104 E10.10262
M204 S625
M205 X6 Y6
G0 F4500 X124.983 Y112.51
M204 S500
M205 X5 Y5
G1 F1080 X113.981 Y101.508 E10.3792
M204 S625
M205 X6 Y6
G0 F4500 X114.575 Y101.508
M204 S500
M205 X5 Y5
G1 F1080 X124.983 Y111.916 E10.64084
M204 S625
M205 X6 Y6
G0 F4500 X124.983 Y111.322
M204 S500
M205 X5 Y5
G1 F1080 X115.169 Y101.508 E10.88756
M204 S625
M205 X6 Y6
G0 F4500 X115.763 Y101.508
M204 S500
M205 X5 Y5
G1 F1080 X124.983 Y110.728 E11.11934
M204 S625
M205 X6 Y6
G0 F4500 X124.983 Y110.134
M204 S500
M205 X5 Y5
G1 F1080 X116.357 Y101.508 E11.33619
M204 S625
M205 X6 Y6
G0 F4500 X116.951 Y101.508
M204 S500
M205 X5 Y5
G1 F1080 X124.983 Y109.54 E11.5381
M204 S625
M205 X6 Y6
G0 F4500 X124.983 Y108.946
M204 S500
M205 X5 Y5
G1 F1080 X117.545 Y101.508 E11.72509
M204 S625
M205 X6 Y6
G0 F4500 X118.139 Y101.508
M204 S500
M205 X5 Y5
G1 F1080 X124.983 Y108.352 E11.89714
M204 S625
M205 X6 Y6
G0 F4500 X124.983 Y107.758
M204 S500
M205 X5 Y5
G1 F1080 X118.733 Y101.508 E12.05426
M204 S625
M205 X6 Y6
G0 F4500 X119.327 Y101.508
M204 S500
M205 X5 Y5
G1 F1080 X124.983 Y107.164 E12.19645
M204 S625
M205 X6 Y6
G0 F4500 X124.983 Y106.57
M104 S205
M204 S500
M205 X5 Y5
G1 F1080 X119.921 Y101.508 E12.3237
M204 S625
M205 X6 Y6
G0 F4500 X120.515 Y101.508
M204 S500
M205 X5 Y5
G1 F1080 X124.983 Y105.976 E12.43602
M204 S625
M205 X6 Y6
G0 F4500 X124.983 Y105.382
M204 S500
M205 X5 Y5
G1 F1080 X121.109 Y101.508 E12.53341
M204 S625
M205 X6 Y6
G0 F4500 X121.702 Y101.508
M204 S500
M205 X5 Y5
G1 F1080 X124.983 Y104.788 E12.61588
M204 S625
M205 X6 Y6
G0 F4500 X124.983 Y104.195
M204 S500
M205 X5 Y5
G1 F1080 X122.296 Y101.508 E12.68343
M204 S625
M205 X6 Y6
G0 F4500 X122.89 Y101.508
M204 S500
M205 X5 Y5
G1 F1080 X124.983 Y103.601 E12.73604
M204 S625
M205 X6 Y6
G0 F4500 X124.983 Y103.007
M204 S500
M205 X5 Y5
G1 F1080 X123.484 Y101.508 E12.77373
M204 S625
M205 X6 Y6
G0 F4500 X124.078 Y101.508
M204 S500
M205 X5 Y5
G1 F1080 X124.983 Y102.413 E12.79648
M204 S625
M205 X6 Y6
G0 F4500 X124.983 Y101.819
M204 S500
M205 X5 Y5
G1 F1080 X124.672 Y101.508 E12.80429
M204 S625
M205 X6 Y6
;MESH:NONMESH
G0 F600 X124.672 Y101.508 Z0.57
G0 F4500 X107.394 Y114.129
;TIME_ELAPSED:48.908872
;LAYER:1
M140 S60
M106 S85
M204 S750
M205 X7.5 Y7.5
;TYPE:WALL-INNER
;MESH:hourglass2.STL
G1 F1980 X107.394 Y100.871 E12.99134
G1 X125.606 Y100.871 E13.24827
G1 X125.606 Y114.129 E13.43531
G1 X107.394 Y114.129 E13.69225
M204 S2812
M205 X18 Y18
G0 F9750 X107.094 Y114.429
M204 S750
M205 X7.5 Y7.5
G1 F1980 X107.094 Y100.571 E13.88775
G1 X125.906 Y100.571 E14.15315
G1 X125.906 Y114.429 E14.34866
G1 X107.094 Y114.429 E14.61406
M204 S2812
M205 X18 Y18
G0 F9750 X106.769 Y114.754
M204 S500
M205 X5 Y5
;TYPE:WALL-OUTER
G1 F1860 X106.769 Y100.246 E14.85285
G1 X126.231 Y100.246 E15.17318
G1 X126.231 Y114.754 E15.41197
G1 X106.769 Y114.754 E15.7323
M204 S2812
M205 X18 Y18
G0 F9750 X106.769 Y114.554
G0 X107.154 Y114.369
G0 X107.709 Y113.814
M204 S500
M205 X5 Y5
;TYPE:SKIN
G1 F1590 X107.709 Y101.186 E15.94015
G1 X125.291 Y101.186 E16.22953
G1 X125.291 Y113.814 E16.43738
G1 X107.709 Y113.814 E16.72677
M204 S2812
M205 X18 Y18
G0 F9750 X107.818 Y101.555
M204 S500
M205 X5 Y5
G1 F1590 X108.078 Y101.295 E16.73282
M204 S2812
M205 X18 Y18
G0 F9750 X108.573 Y101.295
M204 S500
M205 X5 Y5
G1 F1590 X107.818 Y102.05 E16.75039
M204 S2812
M205 X18 Y18
G0 F9750 X107.818 Y102.545
M204 S500
M205 X5 Y5
G1 F1590 X109.068 Y101.295 E16.77949
M204 S2812
M205 X18 Y18
G0 F9750 X109.563 Y101.295
M204 S500
M205 X5 Y5
G1 F1590 X107.818 Y103.04 E16.82011
M204 S2812
M205 X18 Y18
G0 F9750 X107.818 Y103.535
M204 S500
M205 X5 Y5
G1 F1590 X110.058 Y101.295 E16.87225
M204 S2812
M205 X18 Y18
G0 F9750 X110.553 Y101.295
M204 S500
M205 X5 Y5
G1 F1590 X107.818 Y104.03 E16.93591
M204 S2812
M205 X18 Y18
G0 F9750 X107.818 Y104.525
M204 S500
M205 X5 Y5
G1 F1590 X111.048 Y101.295 E17.01109
M204 S2812
M205 X18 Y18
G0 F9750 X111.543 Y101.295
M204 S500
M205 X5 Y5
G1 F1590 X107.818 Y105.02 E17.0978
M204 S2812
M205 X18 Y18
G0 F9750 X107.818 Y105.515
M204 S500
M205 X5 Y5
G1 F1590 X112.038 Y101.295 E17.19603
M204 S2812
M205 X18 Y18
G0 F9750 X112.533 Y101.295
M204 S500
M205 X5 Y5
G1 F1590 X107.818 Y106.01 E17.30578
M204 S2812
M205 X18 Y18
G0 F9750 X107.818 Y106.505
M204 S500
M205 X5 Y5
G1 F1590 X113.028 Y101.295 E17.42705
M204 S2812
M205 X18 Y18
G0 F9750 X113.523 Y101.295
M204 S500
M205 X5 Y5
G1 F1590 X107.818 Y107 E17.55985
M204 S2812
M205 X18 Y18
G0 F9750 X107.818 Y107.495
M204 S500
M205 X5 Y5
G1 F1590 X114.018 Y101.295 E17.70416
M204 S2812
M205 X18 Y18
G0 F9750 X114.513 Y101.295
M204 S500
M205 X5 Y5
G1 F1590 X107.818 Y107.99 E17.86
M204 S2812
M205 X18 Y18
G0 F9750 X107.818 Y108.485
M204 S500
M205 X5 Y5
G1 F1590 X115.008 Y101.295 E18.02736
M204 S2812
M205 X18 Y18
G0 F9750 X115.503 Y101.295
M204 S500
M205 X5 Y5
G1 F1590 X107.818 Y108.98 E18.20624
M204 S2812
M205 X18 Y18
G0 F9750 X107.818 Y109.474
M204 S500
M205 X5 Y5
G1 F1590 X115.998 Y101.295 E18.39664
M204 S2812
M205 X18 Y18
G0 F9750 X116.493 Y101.295
M204 S500
M205 X5 Y5
G1 F1590 X107.818 Y109.969 E18.59855
M204 S2812
M205 X18 Y18
G0 F9750 X107.818 Y110.464
M204 S500
M205 X5 Y5
G1 F1590 X116.987 Y101.295 E18.81198
M204 S2812
M205 X18 Y18
G0 F9750 X117.482 Y101.295
M204 S500
M205 X5 Y5
G1 F1590 X107.818 Y110.959 E19.03693
M204 S2812
M205 X18 Y18
G0 F9750 X107.818 Y111.454
M204 S500
M205 X5 Y5
G1 F1590 X117.977 Y101.295 E19.2734
M204 S2812
M205 X18 Y18
G0 F9750 X118.472 Y101.295
M204 S500
M205 X5 Y5
G1 F1590 X107.818 Y111.949 E19.52139
M204 S2812
M205 X18 Y18
G0 F9750 X107.818 Y112.444
M204 S500
M205 X5 Y5
G1 F1590 X118.967 Y101.295 E19.7809
M204 S2812
M205 X18 Y18
G0 F9750 X119.462 Y101.295
M204 S500
M205 X5 Y5
G1 F1590 X107.818 Y112.939 E20.05194
M204 S2812
M205 X18 Y18
G0 F9750 X107.818 Y113.434
M204 S500
M205 X5 Y5
G1 F1590 X119.957 Y101.295 E20.3345
M204 S2812
M205 X18 Y18
G0 F9750 X120.452 Y101.295
M204 S500
M205 X5 Y5
G1 F1590 X108.044 Y113.704 E20.62333
M204 S2812
M205 X18 Y18
G0 F9750 X108.539 Y113.704
M204 S500
M205 X5 Y5
G1 F1590 X120.947 Y101.295 E20.91216
M204 S2812
M205 X18 Y18
G0 F9750 X121.442 Y101.295
M204 S500
M205 X5 Y5
G1 F1590 X109.034 Y113.704 E21.20099
M204 S2812
M205 X18 Y18
G0 F9750 X109.529 Y113.704
M204 S500
M205 X5 Y5
G1 F1590 X121.937 Y101.295 E21.48982
M204 S2812
M205 X18 Y18
G0 F9750 X122.432 Y101.295
M204 S500
M205 X5 Y5
G1 F1590 X110.024 Y113.704 E21.77865
M204 S2812
M205 X18 Y18
G0 F9750 X110.519 Y113.704
M204 S500
M205 X5 Y5
G1 F1590 X122.927 Y101.295 E22.06748
M204 S2812
M205 X18 Y18
G0 F9750 X123.422 Y101.295
M204 S500
M205 X5 Y5
G1 F1590 X111.014 Y113.704 E22.35631
M204 S2812
M205 X18 Y18
G0 F9750 X111.509 Y113.704
M204 S500
M205 X5 Y5
G1 F1590 X123.917 Y101.295 E22.64514
M204 S2812
M205 X18 Y18
G0 F9750 X124.412 Y101.295
M204 S500
M205 X5 Y5
G1 F1590 X112.004 Y113.704 E22.93398
M204 S2812
M205 X18 Y18
G0 F9750 X112.499 Y113.704
M204 S500
M205 X5 Y5
G1 F1590 X124.907 Y101.295 E23.22281
M204 S2812
M205 X18 Y18
G0 F9750 X125.18 Y101.517
M204 S500
M205 X5 Y5
G1 F1590 X112.994 Y113.704 E23.50647
M204 S2812
M205 X18 Y18
G0 F9750 X113.489 Y113.704
M204 S500
M205 X5 Y5
G1 F1590 X125.18 Y102.012 E23.77861
M204 S2812
M205 X18 Y18
G0 F9750 X125.18 Y102.507
M204 S500
M205 X5 Y5
G1 F1590 X113.984 Y113.704 E24.03923
M204 S2812
M205 X18 Y18
G0 F9750 X114.479 Y113.704
M204 S500
M205 X5 Y5
G1 F1590 X125.18 Y103.002 E24.28833
M204 S2812
M205 X18 Y18
G0 F9750 X125.18 Y103.497
M204 S500
M205 X5 Y5
G1 F1590 X114.974 Y113.704 E24.5259
M204 S2812
M205 X18 Y18
G0 F9750 X115.469 Y113.704
M204 S500
M205 X5 Y5
G1 F1590 X125.18 Y103.992 E24.75196
M204 S2812
M205 X18 Y18
G0 F9750 X125.18 Y104.487
M204 S500
M205 X5 Y5
G1 F1590 X115.964 Y113.704 E24.96649
M204 S2812
M205 X18 Y18
G0 F9750 X116.459 Y113.704
M204 S500
M205 X5 Y5
G1 F1590 X125.18 Y104.982 E25.1695
M204 S2812
M205 X18 Y18
G0 F9750 X125.18 Y105.477
M204 S500
M205 X5 Y5
G1 F1590 X116.954 Y113.704 E25.36099
M204 S2812
M205 X18 Y18
G0 F9750 X117.449 Y113.704
M204 S500
M205 X5 Y5
G1 F1590 X125.18 Y105.972 E25.54095
M204 S2812
M205 X18 Y18
G0 F9750 X125.18 Y106.467
M204 S500
M205 X5 Y5
G1 F1590 X117.943 Y113.704 E25.70941
M204 S2812
M205 X18 Y18
G0 F9750 X118.438 Y113.704
M204 S500
M205 X5 Y5
G1 F1590 X125.18 Y106.962 E25.86634
M204 S2812
M205 X18 Y18
G0 F9750 X125.18 Y107.457
M204 S500
M205 X5 Y5
G1 F1590 X118.933 Y113.704 E26.01175
M204 S2812
M205 X18 Y18
G0 F9750 X119.428 Y113.704
M204 S500
M205 X5 Y5
G1 F1590 X125.18 Y107.952 E26.14564
M204 S2812
M205 X18 Y18
G0 F9750 X125.18 Y108.447
M204 S500
M205 X5 Y5
G1 F1590 X119.923 Y113.704 E26.268
M204 S2812
M205 X18 Y18
G0 F9750 X120.418 Y113.704
M204 S500
M205 X5 Y5
G1 F1590 X125.18 Y108.942 E26.37885
M204 S2812
M205 X18 Y18
G0 F9750 X125.18 Y109.437
M204 S500
M205 X5 Y5
G1 F1590 X120.913 Y113.704 E26.47817
M204 S2812
M205 X18 Y18
G0 F9750 X121.408 Y113.704
M204 S500
M205 X5 Y5
G1 F1590 X125.18 Y109.932 E26.56597
M204 S2812
M205 X18 Y18
G0 F9750 X125.18 Y110.427
M204 S500
M205 X5 Y5
G1 F1590 X121.903 Y113.704 E26.64225
M204 S2812
M205 X18 Y18
G0 F9750 X122.398 Y113.704
M204 S500
M205 X5 Y5
G1 F1590 X125.18 Y110.922 E26.70701
M204 S2812
M205 X18 Y18
G0 F9750 X125.18 Y111.417
M204 S500
M205 X5 Y5
G1 F1590 X122.893 Y113.704 E26.76024
M204 S2812
M205 X18 Y18
G0 F9750 X123.388 Y113.704
M204 S500
M205 X5 Y5
G1 F1590 X125.18 Y111.912 E26.80195
M204 S2812
M205 X18 Y18
G0 F9750 X125.18 Y112.407
M204 S500
M205 X5 Y5
G1 F1590 X123.883 Y113.704 E26.83214
M204 S2812
M205 X18 Y18
G0 F9750 X124.378 Y113.704
M204 S500
M205 X5 Y5
G1 F1590 X125.18 Y112.902 E26.85081
M204 S2812
M205 X18 Y18
G0 F9750 X125.18 Y113.397
M204 S500
M205 X5 Y5
G1 F1590 X124.873 Y113.704 E26.85796
M204 S2812
M205 X18 Y18
;MESH:NONMESH
G0 F600 X124.873 Y113.704 Z0.87
G0 F9750 X107.461 Y114.079
;TIME_ELAPSED:84.426159
;LAYER:2
M106 S170
M204 S1000
M205 X10 Y10
;TYPE:WALL-INNER
;MESH:hourglass2.STL
G1 F2880 X107.461 Y100.921 E27.04359
G1 X125.539 Y100.921 E27.29863
G1 X125.539 Y114.079 E27.48426
G1 X107.461 Y114.079 E27.73931
M204 S5000
M205 X30 Y30
G0 F15000 X107.161 Y114.379
M204 S1000
M205 X10 Y10
G1 F2880 X107.161 Y100.621 E27.9334
G1 X125.839 Y100.621 E28.19691
G1 X125.839 Y114.379 E28.39101
G1 X107.161 Y114.379 E28.65451
M204 S5000
M205 X30 Y30
G0 F15000 X106.836 Y114.704
M204 S500
M205 X5 Y5
;TYPE:WALL-OUTER
G1 F2640 X106.836 Y100.296 E28.89166
G1 X126.164 Y100.296 E29.20978
G1 X126.164 Y114.704 E29.44693
G1 X106.836 Y114.704 E29.76505
M204 S5000
M205 X30 Y30
G0 F15000 X106.836 Y114.504
G0 X107.221 Y114.319
G0 X107.776 Y113.764
M204 S500
M205 X5 Y5
;TYPE:SKIN
G1 F2100 X107.776 Y101.236 E29.97125
G1 X125.224 Y101.236 E30.25843
G1 X125.224 Y113.764 E30.46464
G1 X107.776 Y113.764 E30.75182
M204 S5000
M205 X30 Y30
G0 F15000 X108.208 Y113.653
M204 S500
M205 X5 Y5
G1 F2100 X107.885 Y113.33 E30.75934
M204 S5000
M205 X30 Y30
G0 F15000 X107.885 Y112.835
M204 S500
M205 X5 Y5
G1 F2100 X108.703 Y113.653 E30.77838
M204 S5000
M205 X30 Y30
G0 F15000 X109.198 Y113.653
M204 S500
M205 X5 Y5
G1 F2100 X107.885 Y112.34 E30.80894
M204 S5000
M205 X30 Y30
G0 F15000 X107.885 Y111.845
M204 S500
M205 X5 Y5
G1 F2100 X109.693 Y113.653 E30.85102
M204 S5000
M205 X30 Y30
G0 F15000 X110.188 Y113.653
M204 S500
M205 X5 Y5
G1 F2100 X107.885 Y111.35 E30.90463
M204 S5000
M205 X30 Y30
