;START_OF_HEADER
;HEADER_VERSION:0.1
;FLAVOR:Griffin
;GENERATOR.NAME:Cura_SteamEngine
;GENERATOR.VERSION:4.5.0
;GENERATOR.BUILD_DATE:2020-02-25
;TARGET_MACHINE.NAME:Ultimaker 3
;EXTRUDER_TRAIN.0.INITIAL_TEMPERATURE:210
;EXTRUDER_TRAIN.0.MATERIAL.VOLUME_USED:7675
;EXTRUDER_TRAIN.0.MATERIAL.GUID:532e8b3d-5fd4-4149-b936-53ada9bd6b85
;EXTRUDER_TRAIN.0.NOZZLE.DIAMETER:0.4
;EXTRUDER_TRAIN.0.NOZZLE.NAME:AA 0.4
;BUILD_PLATE.TYPE:glass
;BUILD_PLATE.INITIAL_TEMPERATURE:60
;PRINT.TIME:3875
;PRINT.GROUPS:1
;PRINT.SIZE.MIN.X:9
;PRINT.SIZE.MIN.Y:6
;PRINT.SIZE.MIN.Z:0.27
;PRINT.SIZE.MAX.X:136.286
;PRINT.SIZE.MAX.Y:122.296
;PRINT.SIZE.MAX.Z:59.97
;END_OF_HEADER
;Generated with Cura_SteamEngine 4.5.0
T0
M82 ;absolute extrusion mode
M104 T1 S40
G92 E0
M109 S210
G0 F15000 X9 Y6 Z2
G280
G1 F1500 E-6.5
;LAYER_COUNT:200
;LAYER:0
M107
M204 S625
M205 X6 Y6
G1 F600 Z2.27
;MESH:hourglass2.STL
G0 F4500 X97.491 Y121.517 Z2.27
M204 S500
M205 X5 Y5
;TYPE:WALL-INNER
G1 F600 Z0.27
G1 F1500 E0
G1 F540 X97.491 Y93.483 E0.42714
G1 X135.509 Y93.483 E1.0064
G1 X135.509 Y121.517 E1.43355
G1 X97.491 Y121.517 E2.01281
M204 S625
M205 X6 Y6
G0 F4500 X97.131 Y121.877
M204 S500
M205 X5 Y5
G1 F540 X97.131 Y93.123 E2.45092
G1 X135.869 Y93.123 E3.04115
G1 X135.869 Y121.877 E3.47927
G1 X97.131 Y121.877 E4.0695
M204 S625
M205 X6 Y6
G0 F4500 X96.741 Y122.267
M204 S500
M205 X5 Y5
;TYPE:WALL-OUTER
G1 F540 X96.741 Y92.733 E4.5945
G1 X136.259 Y92.733 E5.29697
G1 X136.259 Y122.267 E5.82196
G1 X96.741 Y122.267 E6.52443
M204 S625
M205 X6 Y6
G0 F4500 X96.741 Y122.067
G0 X97.203 Y121.805
G0 X97.871 Y121.137
M204 S500
M205 X5 Y5
;TYPE:SKIN
G1 F540 X97.871 Y93.863 E7.00926
G1 X135.129 Y93.863 E7.67155
G1 X135.129 Y121.137 E8.15637
G1 X97.871 Y121.137 E8.81867
M204 S625
M205 X6 Y6
G0 F4500 X98.42 Y120.991
M204 S500
M205 X5 Y5
G1 F540 X98.015 Y120.586 E8.82885
M204 S625
M205 X6 Y6
G0 F4500 X98.015 Y119.992
M204 S500
M205 X5 Y5
G1 F540 X99.014 Y120.991 E8.85397
M204 S625
M205 X6 Y6
G0 F4500 X99.608 Y120.991
M204 S500
M205 X5 Y5
G1 F540 X98.015 Y119.398 E8.89401
M204 S625
M205 X6 Y6
G0 F4500 X98.015 Y118.804
M204 S500
M205 X5 Y5
G1 F540 X100.202 Y120.991 E8.94899
M204 S625
M205 X6 Y6
G0 F4500 X100.796 Y120.991
M204 S500
M205 X5 Y5
G1 F540 X98.015 Y118.21 E9.0189
M204 S625
M205 X6 Y6
G0 F4500 X98.015 Y117.616
M204 S500
M205 X5 Y5
G1 F540 X101.39 Y120.991 E9.10375
M204 S625
M205 X6 Y6
G0 F4500 X101.984 Y120.991
M204 S500
M205 X5 Y5
G1 F540 X98.015 Y117.022 E9.20353
M204 S625
M205 X6 Y6
G0 F4500 X98.015 Y116.428
M204 S500
M205 X5 Y5
G1 F540 X102.578 Y120.991 E9.31823
M204 S625
M205 X6 Y6
G0 F4500 X103.172 Y120.991
M204 S500
M205 X5 Y5
G1 F540 X98.015 Y115.834 E9.44788
M204 S625
M205 X6 Y6
G0 F4500 X98.015 Y115.24
M204 S500
M205 X5 Y5
G1 F540 X103.766 Y120.991 E9.59245
M204 S625
M205 X6 Y6
G0 F4500 X104.36 Y120.991
M204 S500
M205 X5 Y5
G1 F540 X98.015 Y114.646 E9.75196
M204 S625
M205 X6 Y6
G0 F4500 X98.015 Y114.052
M204 S500
M205 X5 Y5
G1 F540 X104.954 Y120.991 E9.9264
M204 S625
M205 X6 Y6
G0 F4500 X105.548 Y120.991
M204 S500
M205 X5 Y5
G1 F540 X98.015 Y113.458 E10.11577
M204 S625
M205 X6 Y6
G0 F4500 X98.015 Y112.864
M204 S500
M205 X5 Y5
G1 F540 X106.142 Y120.991 E10.32008
M204 S625
M205 X6 Y6
G0 F4500 X106.736 Y120.991
M204 S500
M205 X5 Y5
G1 F540 X98.015 Y112.27 E10.53931
M204 S625
M205 X6 Y6
G0 F4500 X98.015 Y111.676
M204 S500
M205 X5 Y5
G1 F540 X107.33 Y120.991 E10.77348
M204 S625
M205 X6 Y6
G0 F4500 X107.924 Y120.991
M204 S500
M205 X5 Y5
G1 F540 X98.015 Y111.082 E11.02259
M204 S625
M205 X6 Y6
G0 F4500 X98.015 Y110.488
M204 S500
M205 X5 Y5
G1 F540 X108.518 Y120.991 E11.28662
M204 S625
M205 X6 Y6
G0 F4500 X109.112 Y120.991
M204 S500
M205 X5 Y5
G1 F540 X98.015 Y109.895 E11.56558
M204 S625
M205 X6 Y6
G0 F4500 X98.015 Y109.301
M204 S500
M205 X5 Y5
G1 F540 X109.706 Y120.991 E11.85946
M204 S625
M205 X6 Y6
G0 F4500 X110.3 Y120.991
M204 S500
M205 X5 Y5
G1 F540 X98.015 Y108.707 E12.16828
M204 S625
M205 X6 Y6
G0 F4500 X98.015 Y108.113
M204 S500
M205 X5 Y5
G1 F540 X110.894 Y120.991 E12.49204
M204 S625
M205 X6 Y6
G0 F4500 X111.488 Y120.991
M204 S500
M205 X5 Y5
G1 F540 X98.015 Y107.519 E12.83072
M204 S625
M205 X6 Y6
G0 F4500 X98.015 Y106.925
M204 S500
M205 X5 Y5
G1 F540 X112.082 Y120.991 E13.18434
M204 S625
M205 X6 Y6
G0 F4500 X112.676 Y120.991
M204 S500
M205 X5 Y5
G1 F540 X98.015 Y106.331 E13.55289
M204 S625
M205 X6 Y6
G0 F4500 X98.015 Y105.737
M204 S500
M205 X5 Y5
G1 F540 X113.27 Y120.991 E13.93637
M204 S625
M205 X6 Y6
G0 F4500 X113.863 Y120.991
M204 S500
M205 X5 Y5
G1 F540 X98.015 Y105.143 E14.33478
M204 S625
M205 X6 Y6
G0 F4500 X98.015 Y104.549
M204 S500
M205 X5 Y5
G1 F540 X114.457 Y120.991 E14.74811
M204 S625
M205 X6 Y6
G0 F4500 X115.051 Y120.991
M204 S500
M205 X5 Y5
G1 F540 X98.015 Y103.955 E15.17638
M204 S625
M205 X6 Y6
G0 F4500 X98.015 Y103.361
M204 S500
M205 X5 Y5
G1 F540 X115.645 Y120.991 E15.61958
M204 S625
M205 X6 Y6
G0 F4500 X116.239 Y120.991
M204 S500
M205 X5 Y5
G1 F540 X98.015 Y102.767 E16.07772
M204 S625
M205 X6 Y6
G0 F4500 X98.015 Y102.173
M204 S500
M205 X5 Y5
G1 F540 X116.833 Y120.991 E16.55078
M204 S625
M205 X6 Y6
G0 F4500 X117.427 Y120.991
M204 S500
M205 X5 Y5
G1 F540 X98.015 Y101.579 E17.03878
M204 S625
M205 X6 Y6
G0 F4500 X98.015 Y100.985
M204 S500
M205 X5 Y5
G1 F540 X118.021 Y120.991 E17.54171
M204 S625
M205 X6 Y6
G0 F4500 X118.615 Y120.991
M204 S500
M205 X5 Y5
G1 F540 X98.015 Y100.391 E18.05958
M204 S625
M205 X6 Y6
G0 F4500 X98.015 Y99.797
M204 S500
M205 X5 Y5
G1 F540 X119.209 Y120.991 E18.59237
M204 S625
M205 X6 Y6
G0 F4500 X119.803 Y120.991
M204 S500
M205 X5 Y5
G1 F540 X98.015 Y99.203 E19.1401
M204 S625
M205 X6 Y6
G0 F4500 X98.015 Y98.609
M204 S500
M205 X5 Y5
G1 F540 X120.397 Y120.991 E19.70276
M204 S625
M205 X6 Y6
G0 F4500 X120.991 Y120.991
M204 S500
M205 X5 Y5
G1 F540 X98.015 Y98.015 E20.28036
M204 S625
M205 X6 Y6
G0 F4500 X98.015 Y97.421
M204 S500
M205 X5 Y5
G1 F540 X121.585 Y120.991 E20.87289
M204 S625
M205 X6 Y6
G0 F4500 X122.179 Y120.991
M204 S500
M205 X5 Y5
G1 F540 X98.015 Y96.827 E21.48034
M204 S625
M205 X6 Y6
G0 F4500 X98.015 Y96.233
M204 S500
M205 X5 Y5
G1 F540 X122.773 Y120.991 E22.10274
M204 S625
M205 X6 Y6
G0 F4500 X123.367 Y120.991
M204 S500
M205 X5 Y5
G1 F540 X98.015 Y95.639 E22.74006
M204 S625
M205 X6 Y6
G0 F4500 X98.015 Y95.045
M204 S500
M205 X5 Y5
G1 F540 X123.961 Y120.991 E23.39232
M204 S625
M205 X6 Y6
G0 F4500 X124.555 Y120.991
M204 S500
M205 X5 Y5
G1 F540 X98.015 Y94.451 E24.05951
M204 S625
M205 X6 Y6
G0 F4500 X98.165 Y94.007
M204 S500
M205 X5 Y5
G1 F540 X125.149 Y120.991 E24.73786
M204 S625
M205 X6 Y6
G0 F4500 X125.743 Y120.991
M204 S500
M205 X5 Y5
G1 F540 X98.759 Y94.007 E25.41621
M204 S625
M205 X6 Y6
G0 F4500 X99.353 Y94.007
M204 S500
M205 X5 Y5
G1 F540 X126.337 Y120.991 E26.09456
M204 S625
M205 X6 Y6
G0 F4500 X126.931 Y120.991
M204 S500
M205 X5 Y5
G1 F540 X99.947 Y94.007 E26.77291
M204 S625
M205 X6 Y6
G0 F4500 X100.541 Y94.007
M204 S500
M205 X5 Y5
G1 F540 X127.525 Y120.991 E27.45127
M204 S625
M205 X6 Y6
G0 F4500 X128.119 Y120.991
M204 S500
M205 X5 Y5
G1 F540 X101.135 Y94.007 E28.12962
M204 S625
M205 X6 Y6
G0 F4500 X101.729 Y94.007
M204 S500
M205 X5 Y5
G1 F540 X128.713 Y120.991 E28.80797
M204 S625
M205 X6 Y6
G0 F4500 X129.307 Y120.991
M204 S500
M205 X5 Y5
G1 F540 X102.323 Y94.007 E29.48632
M204 S625
M205 X6 Y6
G0 F4500 X102.917 Y94.007
M204 S500
M205 X5 Y5
G1 F540 X129.901 Y120.991 E30.16467
M204 S625
M205 X6 Y6
G0 F4500 X130.495 Y120.991
M204 S500
M205 X5 Y5
G1 F540 X103.511 Y94.007 E30.84302
M204 S625
M205 X6 Y6
G0 F4500 X104.105 Y94.007
M204 S500
M205 X5 Y5
G1 F540 X131.089 Y120.991 E31.52137
M204 S625
M205 X6 Y6
G0 F4500 X131.683 Y120.991
M204 S500
M205 X5 Y5
G1 F540 X104.699 Y94.007 E32.19973
M204 S625
M205 X6 Y6
G0 F4500 X105.293 Y94.007
M204 S500
M205 X5 Y5
G1 F540 X132.277 Y120.991 E32.87808
M204 S625
M205 X6 Y6
G0 F4500 X132.871 Y120.991
M204 S500
M205 X5 Y5
G1 F540 X105.887 Y94.007 E33.55643
M204 S625
M205 X6 Y6
G0 F4500 X106.481 Y94.007
M204 S500
M205 X5 Y5
G1 F540 X133.464 Y120.991 E34.23477
M204 S625
M205 X6 Y6
G0 F4500 X134.058 Y120.991
M204 S500
M205 X5 Y5
G1 F540 X107.075 Y94.007 E34.91311
M204 S625
M205 X6 Y6
G0 F4500 X107.669 Y94.007
M204 S500
M205 X5 Y5
G1 F540 X134.652 Y120.991 E35.59145
M204 S625
M205 X6 Y6
G0 F4500 X134.983 Y120.727
M204 S500
M205 X5 Y5
G1 F540 X108.262 Y94.007 E36.26317
M204 S625
M205 X6 Y6
G0 F4500 X108.856 Y94.007
M204 S500
M205 X5 Y5
G1 F540 X134.983 Y120.133 E36.91997
M204 S625
M205 X6 Y6
G0 F4500 X134.983 Y119.539
M204 S500
M205 X5 Y5
G1 F540 X109.45 Y94.007 E37.56183
M204 S625
M205 X6 Y6
G0 F4500 X110.044 Y94.007
M204 S500
M205 X5 Y5
G1 F540 X134.983 Y118.945 E38.18876
M204 S625
M205 X6 Y6
G0 F4500 X134.983 Y118.351
M204 S500
M205 X5 Y5
G1 F540 X110.638 Y94.007 E38.80076
M204 S625
M205 X6 Y6
G0 F4500 X111.232 Y94.007
M204 S500
M205 X5 Y5
G1 F540 X134.983 Y117.758 E39.39783
M204 S625
M205 X6 Y6
G0 F4500 X134.983 Y117.164
M204 S500
M205 X5 Y5
G1 F540 X111.826 Y94.007 E39.97998
M204 S625
M205 X6 Y6
G0 F4500 X112.42 Y94.007
M204 S500
M205 X5 Y5
G1 F540 X134.983 Y116.57 E40.54719
M204 S625
M205 X6 Y6
G0 F4500 X134.983 Y115.976
M204 S500
M205 X5 Y5
G1 F540 X113.014 Y94.007 E41.09947
M204 S625
M205 X6 Y6
G0 F4500 X113.608 Y94.007
M204 S500
M205 X5 Y5
G1 F540 X134.983 Y115.382 E41.63682
M204 S625
M205 X6 Y6
G0 F4500 X134.983 Y114.788
M204 S500
M205 X5 Y5
G1 F540 X114.202 Y94.007 E42.15923
M204 S625
M205 X6 Y6
G0 F4500 X114.796 Y94.007
M204 S500
M205 X5 Y5
G1 F540 X134.983 Y114.194 E42.66671
M204 S625
M205 X6 Y6
G0 F4500 X134.983 Y113.6
M204 S500
M205 X5 Y5
G1 F540 X115.39 Y94.007 E43.15926
M204 S625
M205 X6 Y6
G0 F4500 X115.984 Y94.007
M204 S500
M205 X5 Y5
G1 F540 X134.983 Y113.006 E43.63688
M204 S625
M205 X6 Y6
G0 F4500 X134.983 Y112.412
M204 S500
M205 X5 Y5
G1 F540 X116.578 Y94.007 E44.09956
M204 S625
M205 X6 Y6
G0 F4500 X117.172 Y94.007
M204 S500
M205 X5 Y5
G1 F540 X134.983 Y111.818 E44.54731
M204 S625
M205 X6 Y6
G0 F4500 X134.983 Y111.224
M204 S500
M205 X5 Y5
G1 F540 X117.766 Y94.007 E44.98013
M204 S625
M205 X6 Y6
G0 F4500 X118.36 Y94.007
M204 S500
M205 X5 Y5
G1 F540 X134.983 Y110.63 E45.39802
M204 S625
M205 X6 Y6
G0 F4500 X134.983 Y110.036
M204 S500
M205 X5 Y5
G1 F540 X118.954 Y94.007 E45.80097
M204 S625
M205 X6 Y6
G0 F4500 X119.548 Y94.007
M204 S500
M205 X5 Y5
G1 F540 X134.983 Y109.442 E46.18899
M204 S625
M205 X6 Y6
G0 F4500 X134.983 Y108.848
M204 S500
M205 X5 Y5
G1 F540 X120.142 Y94.007 E46.56208
M204 S625
M205 X6 Y6
G0 F4500 X120.736 Y94.007
M204 S500
M205 X5 Y5
G1 F540 X134.983 Y108.254 E46.92023
M204 S625
M205 X6 Y6
G0 F4500 X134.983 Y107.66
M204 S500
M205 X5 Y5
G1 F540 X121.33 Y94.007 E47.26346
M204 S625
M205 X6 Y6
G0 F4500 X121.924 Y94.007
M204 S500
M205 X5 Y5
G1 F540 X134.983 Y107.066 E47.59175
M204 S625
M205 X6 Y6
G0 F4500 X134.983 Y106.472
M204 S500
M205 X5 Y5
G1 F540 X122.518 Y94.007 E47.90511
M204 S625
M205 X6 Y6
G0 F4500 X123.112 Y94.007
M204 S500
M205 X5 Y5
G1 F540 X134.983 Y105.878 E48.20353
M204 S625
M205 X6 Y6
G0 F4500 X134.983 Y105.284
M204 S500
M205 X5 Y5
G1 F540 X123.706 Y94.007 E48.48702
M204 S625
M205 X6 Y6
G0 F4500 X124.3 Y94.007
M204 S500
M205 X5 Y5
G1 F540 X134.983 Y104.69 E48.75558
M204 S625
M205 X6 Y6
G0 F4500 X134.983 Y104.096
M204 S500
M205 X5 Y5
G1 F540 X124.894 Y94.007 E49.00921
M204 S625
M205 X6 Y6
G0 F4500 X125.488 Y94.007
M204 S500
M205 X5 Y5
G1 F540 X134.983 Y103.502 E49.24791
M204 S625
M205 X6 Y6
G0 F4500 X134.983 Y102.908
M204 S500
M205 X5 Y5
G1 F540 X126.082 Y94.007 E49.47167
M204 S625
M205 X6 Y6
G0 F4500 X126.676 Y94.007
M204 S500
M205 X5 Y5
G1 F540 X134.983 Y102.314 E49.6805
M204 S625
M205 X6 Y6
G0 F4500 X134.983 Y101.72
M204 S500
M205 X5 Y5
G1 F540 X127.27 Y94.007 E49.8744
M204 S625
M205 X6 Y6
G0 F4500 X127.863 Y94.007
M204 S500
M205 X5 Y5
G1 F540 X134.983 Y101.126 E50.05337
M204 S625
M205 X6 Y6
G0 F4500 X134.983 Y100.532
M204 S500
M205 X5 Y5
G1 F540 X128.457 Y94.007 E50.21742
M204 S625
M205 X6 Y6
G0 F4500 X129.051 Y94.007
M204 S500
M205 X5 Y5
G1 F540 X134.983 Y99.938 E50.36653
M204 S625
M205 X6 Y6
G0 F4500 X134.983 Y99.344
M204 S500
M205 X5 Y5
G1 F540 X129.645 Y94.007 E50.50071
M204 S625
M205 X6 Y6
G0 F4500 X130.239 Y94.007
M204 S500
M205 X5 Y5
G1 F540 X134.983 Y98.75 E50.61996
M204 S625
M205 X6 Y6
G0 F4500 X134.983 Y98.157
M204 S500
M205 X5 Y5
G1 F540 X130.833 Y94.007 E50.72428
M204 S625
M205 X6 Y6
G0 F4500 X131.427 Y94.007
M104 S205
M204 S500
M205 X5 Y5
G1 F540 X134.983 Y97.563 E50.81368
M204 S625
M205 X6 Y6
G0 F4500 X134.983 Y96.969
M204 S500
M205 X5 Y5
G1 F540 X132.021 Y94.007 E50.88814
M204 S625
M205 X6 Y6
G0 F4500 X132.615 Y94.007
M204 S500
M205 X5 Y5
G1 F540 X134.983 Y96.375 E50.94767
M204 S625
M205 X6 Y6
G0 F4500 X134.983 Y95.781
M204 S500
M205 X5 Y5
G1 F540 X133.209 Y94.007 E50.99227
M204 S625
M205 X6 Y6
G0 F4500 X133.803 Y94.007
M204 S500
M205 X5 Y5
G1 F540 X134.983 Y95.187 E51.02193
M204 S625
M205 X6 Y6
G0 F4500 X134.983 Y94.593
M204 S500
M205 X5 Y5
G1 F540 X134.397 Y94.007 E51.03666
M204 S625
M205 X6 Y6
;MESH:NONMESH
G0 F600 X134.397 Y94.007 Z0.57
G0 F4500 X97.394 Y121.629
;TIME_ELAPSED:334.092560
;LAYER:1
M140 S60
M106 S85
M204 S750
M205 X7.5 Y7.5
;TYPE:WALL-INNER
;MESH:hourglass2.STL
G1 F990 X97.394 Y93.371 E51.43532
G1 X135.606 Y93.371 E51.97442
G1 X135.606 Y121.629 E52.37308
G1 X97.394 Y121.629 E52.91217
M204 S2812
M205 X18 Y18
G0 F9750 X97.094 Y121.929
M204 S750
M205 X7.5 Y7.5
G1 F990 X97.094 Y93.071 E53.3193
G1 X135.906 Y93.071 E53.86685
G1 X135.906 Y121.929 E54.27398
G1 X97.094 Y121.929 E54.82153
M204 S2812
M205 X18 Y18
G0 F9750 X96.769 Y122.254
M204 S500
M205 X5 Y5
;TYPE:WALL-OUTER
G1 F930 X96.769 Y92.746 E55.30721
G1 X136.231 Y92.746 E55.95673
G1 X136.231 Y122.254 E56.44241
G1 X96.769 Y122.254 E57.09192
M204 S2812
M205 X18 Y18
G0 F9750 X96.769 Y122.054
G0 X97.154 Y121.869
G0 X97.709 Y121.314
M204 S500
M205 X5 Y5
;TYPE:SKIN
G1 F810 X97.709 Y93.686 E57.54666
G1 X135.291 Y93.686 E58.16523
G1 X135.291 Y121.314 E58.61996
G1 X97.709 Y121.314 E59.23854
M204 S2812
M205 X18 Y18
G0 F9750 X98.253 Y93.796
M204 S500
M205 X5 Y5
G1 F810 X97.819 Y94.231 E59.24865
M204 S2812
M205 X18 Y18
G0 F9750 X97.819 Y94.726
M204 S500
M205 X5 Y5
G1 F810 X98.748 Y93.796 E59.27028
M204 S2812
M205 X18 Y18
G0 F9750 X99.243 Y93.796
M204 S500
M205 X5 Y5
G1 F810 X97.819 Y95.221 E59.30344
M204 S2812
M205 X18 Y18
G0 F9750 X97.819 Y95.716
M204 S500
M205 X5 Y5
G1 F810 X99.738 Y93.796 E59.34812
M204 S2812
M205 X18 Y18
G0 F9750 X100.233 Y93.796
M204 S500
M205 X5 Y5
G1 F810 X97.819 Y96.211 E59.40432
M204 S2812
M205 X18 Y18
G0 F9750 X97.819 Y96.706
M204 S500
M205 X5 Y5
G1 F810 X100.728 Y93.796 E59.47205
M204 S2812
M205 X18 Y18
G0 F9750 X101.223 Y93.796
M204 S500
M205 X5 Y5
G1 F810 X97.819 Y97.201 E59.55129
M204 S2812
M205 X18 Y18
G0 F9750 X97.819 Y97.695
M204 S500
M205 X5 Y5
G1 F810 X101.718 Y93.796 E59.64205
M204 S2812
M205 X18 Y18
G0 F9750 X102.213 Y93.796
M204 S500
M205 X5 Y5
G1 F810 X97.819 Y98.19 E59.74433
M204 S2812
M205 X18 Y18
G0 F9750 X97.819 Y98.685
M204 S500
M205 X5 Y5
G1 F810 X102.708 Y93.796 E59.85813
M204 S2812
M205 X18 Y18
G0 F9750 X103.203 Y93.796
M204 S500
M205 X5 Y5
G1 F810 X97.819 Y99.18 E59.98345
M204 S2812
M205 X18 Y18
G0 F9750 X97.819 Y99.675
M204 S500
M205 X5 Y5
G1 F810 X103.698 Y93.796 E60.1203
M204 S2812
M205 X18 Y18
G0 F9750 X104.193 Y93.796
M204 S500
M205 X5 Y5
G1 F810 X97.819 Y100.17 E60.26866
M204 S2812
M205 X18 Y18
G0 F9750 X97.819 Y100.665
M204 S500
M205 X5 Y5
G1 F810 X104.688 Y93.796 E60.42855
M204 S2812
M205 X18 Y18
G0 F9750 X105.183 Y93.796
M204 S500
M205 X5 Y5
G1 F810 X97.819 Y101.16 E60.59996
M204 S2812
M205 X18 Y18
G0 F9750 X97.819 Y101.655
M204 S500
M205 X5 Y5
G1 F810 X105.678 Y93.796 E60.7829
M204 S2812
M205 X18 Y18
G0 F9750 X106.173 Y93.796
M204 S500
M205 X5 Y5
G1 F810 X97.819 Y102.15 E60.97735
M204 S2812
M205 X18 Y18
G0 F9750 X97.819 Y102.645
M204 S500
M205 X5 Y5
G1 F810 X106.668 Y93.796 E61.18333
M204 S2812
M205 X18 Y18
G0 F9750 X107.163 Y93.796
M204 S500
M205 X5 Y5
G1 F810 X97.819 Y103.14 E61.40083
M204 S2812
M205 X18 Y18
G0 F9750 X97.819 Y103.635
M204 S500
M205 X5 Y5
G1 F810 X107.658 Y93.796 E61.62985
M204 S2812
M205 X18 Y18
G0 F9750 X108.153 Y93.796
M204 S500
M205 X5 Y5
G1 F810 X97.819 Y104.13 E61.87039
M204 S2812
